(File created: Monday December 15 2025 - 01:55 PM)
(for Carvera from Vectric)
(VECTRIC POST REVISION)
(AA6001CAC4E9696A3EC4F9B49CBCFB6D)
G90G54
G17
G21

T1M6
G0Z20.320
G0X0.000Y0.000
S10000M3
G0X63.460Y0.001
G0Z5.080
G1Z-1.000F300.0
G1X0.040F1000.0
X0.004Y0.004
X0.000Y0.058
Y2.224
X63.500
Y4.446
X0.000
Y6.669
X63.500
Y8.891
X0.000
Y11.114
X63.500
Y13.336
X0.000
Y15.559
X63.500
Y17.781
X0.000
Y20.004
X63.500
Y22.226
X0.000
Y24.449
X63.500
Y26.671
X0.000
Y28.894
X51.470
X51.293Y28.979
X51.102Y29.079
X50.925Y29.204
X50.768Y29.351
X50.693Y29.426
X50.546Y29.583
X50.421Y29.760
X50.321Y29.951
X50.229Y30.144
X50.162Y30.348
X50.094Y30.546
X50.053Y30.752
X50.039Y30.961
Y31.004
X50.013Y31.116
X0.000
Y33.339
X50.909
X50.952Y33.369
X51.143Y33.469
X51.318Y33.554
X51.503Y33.618
X51.694Y33.658
X51.898Y33.716
X52.107Y33.746
X52.269Y33.790
X52.436Y33.817
X52.604Y33.826
X52.979
X53.183Y33.813
X53.385Y33.773
X53.580Y33.708
X53.763Y33.619
X53.955Y33.520
X54.132Y33.395
X54.191Y33.339
G0Z5.080
G0X63.500Y28.894
G1Z-1.000F300.0
G1X52.986F1000.0
X53.162Y28.979
X53.353Y29.079
X53.530Y29.204
X53.688Y29.351
X53.763Y29.426
X53.838Y29.501
X53.913Y29.576
X53.988Y29.651
X54.064Y29.726
X54.139Y29.801
X54.286Y29.959
X54.411Y30.136
X54.510Y30.327
X54.585Y30.477
X54.685Y30.687
X54.753Y30.911
X54.784Y31.116
X63.500
Y33.339
X54.191
G0Z5.080
G0X63.500Y35.561
G1Z-1.000F300.0
G1X0.000F1000.0
Y37.784
X63.500
Y40.006
X0.000
Y42.229
X63.500
Y44.451
X0.000
Y46.674
X63.500
Y48.896
X30.544
X30.617Y48.964
X30.693Y49.039
X30.840Y49.197
X30.965Y49.374
X31.064Y49.565
X31.153Y49.749
X31.218Y49.944
X31.258Y50.146
X31.271Y50.349
Y50.725
X31.257Y50.937
X31.219Y51.119
X63.500
Y53.341
X29.311
X29.265Y53.387
X29.190Y53.462
X29.115Y53.538
X29.039Y53.613
X28.964Y53.688
X28.844Y53.804
X28.711Y53.907
X28.569Y53.995
X28.395Y54.115
X28.204Y54.213
X28.001Y54.284
X27.791Y54.327
X27.579Y54.341
X27.354
X27.141Y54.327
X26.929Y54.283
X26.722Y54.210
X26.527Y54.109
X26.350Y53.984
X26.194Y53.838
X26.119Y53.763
X26.003Y53.643
X25.900Y53.510
X25.812Y53.368
X25.794Y53.341
G0Z5.080
G0X0.000Y48.896
G1Z-1.000F300.0
G1X27.770F1000.0
X27.697Y48.964
X27.646Y49.014
X27.354Y48.987
X26.828
X26.624Y49.000
X26.422Y49.040
X26.227Y49.105
X26.044Y49.194
X25.836Y49.304
X25.643Y49.445
X25.473Y49.615
X25.332Y49.808
X25.222Y50.016
X25.147Y50.166
X25.058Y50.350
X24.992Y50.545
X24.953Y50.747
X24.940Y50.950
Y51.119
X0.000
Y53.341
X25.794
G0Z5.080
G0X0.000Y55.564
G1Z-1.000F300.0
G1X24.780F1000.0
X24.842Y55.502
X24.999Y55.355
X25.176Y55.230
X25.367Y55.131
X25.560Y55.038
X25.764Y54.972
X25.962Y54.904
X26.168Y54.862
X26.377Y54.849
X26.903
X27.084Y54.859
X27.263Y54.890
X27.436Y54.941
X27.640Y54.985
X27.837Y55.056
X28.023Y55.152
X28.194Y55.270
X28.336Y55.358
X28.468Y55.461
X28.575Y55.564
X63.500
Y57.786
X29.161
X29.148Y57.958
X29.092Y58.196
Y58.433
X29.148Y58.672
X29.167Y58.916
Y58.959
X29.213Y59.138
X29.237Y59.321
X29.300Y59.585
X29.375Y59.885
X29.408Y60.009
X63.500
Y62.231
X29.983
X29.980Y62.281
X29.938Y62.487
X29.870Y62.686
X29.795Y62.911
X29.724Y63.125
X29.623Y63.330
X29.493Y63.517
X29.340Y63.683
X29.265Y63.758
X29.109Y63.903
X28.932Y64.029
X28.737Y64.130
X28.531Y64.203
X28.318Y64.247
X28.105Y64.261
X27.730
X27.526Y64.248
X27.324Y64.208
X27.129Y64.143
X26.945Y64.054
X26.754Y63.954
X26.577Y63.830
X26.420Y63.683
X26.304Y63.562
X26.201Y63.430
X26.113Y63.288
X25.963Y63.062
X25.846Y62.895
X25.752Y62.714
X25.743Y62.706
X25.668Y62.630
X25.481Y62.422
X25.299Y62.308
X25.206Y62.231
G0Z5.080
G0X0.000Y57.786
G1Z-1.000F300.0
G1X23.476F1000.0
X23.367Y57.941
X23.268Y58.132
X23.193Y58.282
X23.104Y58.466
X23.039Y58.661
X22.999Y58.863
X22.986Y59.066
Y59.292
X22.996Y59.472
X23.027Y59.651
X23.078Y59.825
X23.117Y60.009
X0.000
Y62.231
X25.206
G0Z5.080
G0X0.000Y64.454
G1Z-1.000F300.0
G1X63.500F1000.0
Y66.676
X0.000
Y68.899
X63.500
Y71.121
X0.000
Y73.344
X63.500
Y75.566
X0.000
Y77.789
X63.500
Y80.011
X0.000
Y82.234
X63.500
Y84.456
X0.000
Y86.678
X63.500
Y88.842
X63.496Y88.896
X63.460Y88.899
X0.040
G0Z5.080
G0X50.039Y30.961
G1Z-1.000F300.0
G1Y31.004F1000.0
G2X49.964Y31.487I1.512J0.483
G1Y31.712
G2X50.171Y32.497I1.588J0.000
G2X50.542Y33.022I1.455J-0.634
G1X50.617Y33.097
G2X51.143Y33.469I1.159J-1.084
G2X51.694Y33.658I0.784J-1.380
G1X52.107Y33.746
G2X52.604Y33.826I0.497J-1.508
G1X52.979
G2X53.763Y33.619I0.000J-1.587
G2X54.289Y33.248I-0.634J-1.455
G1X54.364Y33.172
G2X54.867Y32.013I-1.084J-1.159
G1Y31.637
G2X54.788Y31.140I-1.588J0.000
G2X54.585Y30.477I-1.583J0.121
G1X54.510Y30.327
G2X54.139Y29.801I-1.455J0.634
G1X54.064Y29.726
X53.988Y29.651
X53.913Y29.576
X53.838Y29.501
X53.763Y29.426
X53.688Y29.351
G2X53.162Y28.979I-1.159J1.084
G2X52.378Y28.772I-0.784J1.380
G1X52.078
G2X51.293Y28.979I0.000J1.587
G2X50.768Y29.351I0.634J1.455
G1X50.693Y29.426
G2X50.321Y29.951I1.084J1.159
G1X50.162Y30.348
G2X50.039Y30.961I1.464J0.613
G0Z5.080
G0X31.271Y50.725
G1Z-1.000F300.0
G1Y50.349F1000.0
G2X31.064Y49.565I-1.588J0.000
G2X30.693Y49.039I-1.455J0.634
G1X30.617Y48.964
G2X29.846Y48.509I-1.159J1.084
G2X29.233Y48.386I-0.613J1.464
G1X29.007
G2X28.223Y48.593I0.000J1.588
G2X27.697Y48.964I0.634J1.455
G1X27.646Y49.014
X27.354Y48.987
X26.828
G2X26.044Y49.194I0.000J1.588
G2X25.222Y50.016I0.634J1.455
G1X25.147Y50.166
G2X24.940Y50.950I1.380J0.784
G1Y51.176
G2X25.063Y51.789I1.588J0.000
G1X25.222Y52.185
X25.297Y52.336
X25.366Y52.474
X25.523Y52.862
X25.598Y53.012
X25.812Y53.368
G2X26.119Y53.763I1.391J-0.765
G1X26.194Y53.838
G2X27.354Y54.341I1.159J-1.084
G1X27.579
G2X28.569Y53.995I0.000J-1.587
G2X28.964Y53.688I-0.765J-1.391
G1X29.039Y53.613
X29.115Y53.538
X29.190Y53.462
X29.265Y53.387
X29.340Y53.312
X29.415Y53.237
X29.490Y53.162
G2X29.782Y52.795I-1.084J-1.159
G1X29.866Y52.711
X30.094Y52.445
G2X30.542Y52.110I-0.711J-1.419
G1X30.617Y52.035
X30.693Y51.959
X30.768Y51.884
G2X31.271Y50.725I-1.084J-1.159
G0Z5.080
G0X26.420Y63.683
G1Z-1.000F300.0
G2X26.945Y64.054I1.159J-1.084F1000.0
G2X27.730Y64.261I0.784J-1.380
G1X28.105
G2X29.265Y63.758I0.000J-1.588
G1X29.340Y63.683
G2X29.795Y62.911I-1.084J-1.159
G1X29.870Y62.686
G2X29.993Y62.072I-1.464J-0.613
G1Y61.847
G2X29.918Y61.363I-1.588J0.000
G2X29.711Y60.612I-1.587J0.033
G1X29.636Y60.461
X29.441Y60.130
X29.375Y59.885
X29.300Y59.585
X29.237Y59.321
X29.167Y58.959
Y58.916
G2X29.092Y58.433I-1.588J0.000
G1Y58.196
G2X29.167Y57.714I-1.512J-0.483
G1Y56.887
G2X28.960Y56.103I-1.588J0.000
G2X28.588Y55.577I-1.455J0.634
G2X28.194Y55.270I-1.159J1.084
G2X27.436Y54.941I-0.990J1.241
G2X26.903Y54.849I-0.533J1.495
G1X26.377
G2X25.764Y54.972I0.000J1.588
G1X25.367Y55.131
G2X24.842Y55.502I0.634J1.455
G1X24.767Y55.577
G2X24.395Y56.103I1.084J1.159
G1X24.320Y56.253
X24.164Y56.640
X24.095Y56.779
G2X23.911Y57.292I1.380J0.784
G1X23.872Y57.374
X23.790Y57.456
X23.714Y57.531
X23.639Y57.606
G2X23.268Y58.132I1.084J1.159
G1X23.193Y58.282
G2X22.986Y59.066I1.380J0.784
G1Y59.292
G2X23.078Y59.825I1.588J0.000
G2X23.268Y60.376I1.570J-0.233
G1X23.343Y60.527
G2X23.714Y61.052I1.455J-0.634
G1X23.790Y61.128
X23.865Y61.203
X23.940Y61.278
G2X24.457Y61.645I1.159J-1.084
G1X24.466Y61.654
X24.541Y61.729
X24.616Y61.804
G2X25.134Y62.171I1.159J-1.084
G1X25.481Y62.422
X25.668Y62.630
X25.743Y62.706
X25.752Y62.714
X25.963Y63.062
X26.113Y63.288
G2X26.420Y63.683I1.391J-0.765
G0Z5.080
G0X0.058Y88.900
G1Z-1.000F300.0
G1X0.004Y88.896F1000.0
X0.000Y88.842
Y0.058
X0.004Y0.004
X0.058Y0.000
X63.442
X63.496Y0.004
X63.500Y0.058
Y88.842
X63.496Y88.896
X63.442Y88.900
X0.058
G0Z5.080
G0X63.460Y0.001
G1Z-2.000F300.0
G1X0.040F1000.0
X0.004Y0.004
X0.000Y0.058
Y2.224
X63.500
Y4.446
X0.000
Y6.669
X63.500
Y8.891
X0.000
Y11.114
X63.500
Y13.336
X0.000
Y15.559
X63.500
Y17.781
X0.000
Y20.004
X63.500
Y22.226
X0.000
Y24.449
X63.500
Y26.671
X0.000
Y28.894
X50.051
X49.970Y29.009
X49.871Y29.200
X49.781Y29.383
X49.716Y29.579
X49.676Y29.780
X49.663Y29.984
Y30.660
X49.672Y30.827
X49.639Y30.940
X49.556Y31.112
X49.554Y31.116
X0.000
Y33.339
X49.371
X49.379Y33.443
X49.420Y33.637
X49.484Y33.823
X49.570Y33.999
X49.645Y34.150
X49.744Y34.341
X49.869Y34.518
X50.016Y34.675
X50.174Y34.822
X50.351Y34.947
X50.542Y35.047
X50.692Y35.122
X50.876Y35.211
X51.071Y35.276
X51.273Y35.316
X51.476Y35.329
X51.702
X51.905Y35.316
X52.107Y35.276
X52.302Y35.211
X52.486Y35.122
X52.636Y35.047
X52.821Y34.951
X52.992Y34.832
X53.012Y34.821
X53.308Y34.652
X53.507Y34.636
X53.704Y34.595
X53.893Y34.529
X54.108Y34.459
X54.312Y34.357
X54.499Y34.228
X54.665Y34.074
X54.740Y33.999
X54.815Y33.924
X54.890Y33.849
X54.965Y33.774
X55.120Y33.606
X55.250Y33.418
X55.484Y33.352
X55.512Y33.339
G0Z5.080
G0X63.500Y28.894
G1Z-2.000F300.0
G1X54.157F1000.0
X54.187Y28.936
X54.281Y29.116
X54.325Y29.165
X54.439Y29.275
X54.515Y29.351
X54.590Y29.426
X54.665Y29.501
X54.674Y29.509
X54.804Y29.574
X55.003Y29.640
X55.191Y29.731
X55.330Y29.800
X55.542Y29.871
X55.744Y29.972
X55.929Y30.100
X56.093Y30.252
X56.240Y30.410
X56.365Y30.587
X56.464Y30.778
X56.553Y30.962
X56.605Y31.116
X63.500
Y33.339
X55.512
G0Z5.080
G0X63.500Y35.561
G1Z-2.000F300.0
G1X0.000F1000.0
Y37.784
X63.500
Y40.006
X0.000
Y42.229
X63.500
Y44.451
X0.000
Y46.674
X63.500
Y48.896
X31.870
X31.941Y48.998
X32.041Y49.189
X32.130Y49.373
X32.195Y49.568
X32.235Y49.770
X32.248Y49.973
Y50.274
X32.238Y50.455
X32.207Y50.634
X32.156Y50.807
X32.112Y51.011
X32.073Y51.119
X63.500
Y53.341
X29.974
X29.914Y53.627
X29.889Y53.810
X29.843Y53.989
X29.830Y54.159
X29.799Y54.327
X29.751Y54.490
X29.710Y54.683
X29.645Y54.870
X29.603Y55.008
X29.676Y55.301
X29.727Y55.475
X29.742Y55.564
X63.500
Y57.786
X29.926
X29.918Y57.822
X29.905Y57.991
X29.874Y58.159
X29.826Y58.322
X29.768Y58.572
Y59.636
X29.820Y59.847
X29.891Y60.009
X63.500
Y62.231
X30.704
X30.772Y62.436
X30.840Y62.634
X30.881Y62.840
X30.895Y63.049
Y63.275
X30.882Y63.478
X30.843Y63.680
X30.777Y63.875
X30.688Y64.059
X30.613Y64.209
X30.514Y64.400
X30.476Y64.454
X63.500
Y66.676
G0Z5.080
G0X25.062Y48.896
G1Z-2.000F300.0
G1X0.000F1000.0
Y51.119
X24.059
X24.093Y51.290
X24.161Y51.488
X24.227Y51.692
X24.320Y51.885
X24.395Y52.035
X24.491Y52.220
X24.610Y52.391
X24.760Y52.617
X24.771Y52.636
X24.840Y52.775
X24.882Y52.912
X24.944Y53.176
X24.968Y53.341
X0.000
Y55.564
X24.176
X24.170Y55.577
X24.095Y55.727
X24.084Y55.747
X23.956Y55.932
X23.856Y56.135
X23.785Y56.349
X23.721Y56.536
X23.679Y56.729
X23.618Y56.950
X23.564Y57.005
X23.489Y57.080
X23.414Y57.155
X23.339Y57.230
X23.264Y57.306
X23.188Y57.381
X23.041Y57.538
X22.917Y57.715
X22.880Y57.786
X0.000
Y60.009
X22.312
X22.323Y60.177
X22.365Y60.383
X22.433Y60.581
X22.503Y60.796
X22.605Y61.000
X22.734Y61.188
X22.888Y61.353
X22.963Y61.428
X23.038Y61.503
X23.196Y61.650
X23.373Y61.775
X23.564Y61.874
X23.583Y61.885
X23.754Y62.004
X23.940Y62.100
X24.013Y62.139
X24.092Y62.231
X0.000
Y64.454
X25.622
G0Z5.080
G0X63.500Y66.676
G1Z-2.000F300.0
G1X0.000F1000.0
Y68.899
X63.500
Y71.121
X0.000
Y73.344
X63.500
Y75.566
X0.000
Y77.789
X63.500
Y80.011
X0.000
Y82.234
X63.500
Y84.456
X0.000
Y86.678
X63.500
Y88.842
X63.496Y88.896
X63.460Y88.899
X0.040
G0Z5.080
G0X0.000Y0.058
G1Z-2.000F300.0
G1X0.004Y0.004F1000.0
X0.058Y0.000
X63.442
X63.496Y0.004
X63.500Y0.058
Y88.842
X63.496Y88.896
X63.442Y88.900
X0.058
X0.004Y88.896
X0.000Y88.842
Y0.058
G0Z5.080
G0X28.073Y47.992
G1Z-2.000F300.0
G1X27.922Y48.067F1000.0
G2X27.397Y48.438I0.634J1.455
G1X27.322Y48.513
X27.246Y48.588
X27.222Y48.611
X26.903
G2X26.369Y48.704I0.000J1.588
G1X26.120Y48.762
X25.701
G2X24.541Y49.265I0.000J1.588
G2X24.038Y50.424I1.084J1.159
G1Y50.875
G2X24.161Y51.488I1.588J0.000
G1X24.320Y51.885
X24.395Y52.035
X24.610Y52.391
X24.760Y52.617
X24.771Y52.636
X24.840Y52.775
X24.882Y52.912
X24.944Y53.176
X25.032Y53.588
X25.037Y53.618
X25.015Y53.881
Y54.407
X25.018Y54.513
X24.842Y54.675
X24.767Y54.751
X24.691Y54.826
X24.616Y54.901
G2X24.245Y55.427I1.084J1.159
G1X24.170Y55.577
X24.095Y55.727
X24.084Y55.747
G2X23.785Y56.349I1.241J0.990
G1X23.679Y56.729
X23.618Y56.950
X23.564Y57.005
X23.489Y57.080
X23.414Y57.155
X23.339Y57.230
X23.264Y57.306
X23.188Y57.381
G2X22.817Y57.906I1.084J1.159
G2X22.615Y58.569I1.380J0.784
G1X22.544Y58.900
G2X22.402Y59.359I1.428J0.693
G2X22.310Y59.893I1.495J0.533
G1Y59.968
G2X22.433Y60.581I1.588J0.000
G2X22.888Y61.353I1.539J-0.388
G1X22.963Y61.428
X23.038Y61.503
G2X23.564Y61.874I1.159J-1.084
G1X23.583Y61.885
X23.940Y62.100
X24.013Y62.139
X24.241Y62.405
X24.316Y62.480
X24.391Y62.555
X24.466Y62.630
G2X24.861Y62.937I1.159J-1.084
G1X24.891Y62.961
G2X25.072Y63.457I1.561J-0.287
G1X25.147Y63.608
X25.266Y63.830
X25.372Y64.059
G2X25.743Y64.584I1.455J-0.634
G1X25.819Y64.659
X25.894Y64.735
X25.969Y64.810
G2X27.096Y65.313I1.159J-1.084
G1X27.191Y65.340
X27.572Y65.446
G2X28.105Y65.538I0.533J-1.495
G1X28.331
G2X28.864Y65.446I0.000J-1.588
G2X29.415Y65.256I-0.233J-1.570
G1X29.566Y65.181
X29.716Y65.106
G2X30.242Y64.735I-0.634J-1.455
G2X30.613Y64.209I-1.084J-1.159
G1X30.688Y64.059
G2X30.895Y63.275I-1.380J-0.784
G1Y63.049
G2X30.772Y62.436I-1.588J0.000
G1X30.697Y62.210
X30.622Y61.985
X30.590Y61.876
G2X30.387Y61.213I-1.583J0.121
G1X30.319Y61.074
X30.246Y60.858
X30.087Y60.461
X29.968Y60.239
X29.945Y60.181
X29.820Y59.847
X29.768Y59.636
Y58.572
X29.826Y58.322
G2X29.918Y57.822I-1.495J-0.533
G2X29.993Y57.338I-1.512J-0.484
G1Y57.263
G2X29.918Y56.780I-1.588J0.000
G1Y56.737
G2X29.826Y56.203I-1.588J0.000
G1X29.768Y55.953
Y55.835
G2X29.676Y55.301I-1.588J0.000
G1X29.603Y55.008
X29.645Y54.870
X29.751Y54.490
G2X29.843Y53.989I-1.495J-0.533
G1X29.914Y53.627
X29.986Y53.281
X30.317Y53.012
X30.392Y52.936
X30.404Y52.925
X30.704Y52.700
G2X31.068Y52.410I-0.796J-1.374
G1X31.144Y52.335
X31.155Y52.324
G2X31.815Y51.584I-0.796J-1.374
G1X31.826Y51.565
G2X32.156Y50.807I-1.241J-0.990
G2X32.248Y50.274I-1.495J-0.533
G1Y49.973
G2X32.041Y49.189I-1.588J0.000
G2X31.670Y48.664I-1.455J0.634
G1X31.594Y48.588
X31.519Y48.513
G2X30.994Y48.142I-1.159J1.084
G2X30.286Y47.937I-0.784J1.380
G2X29.608Y47.785I-0.678J1.435
G1X28.857
G2X28.073Y47.992I0.000J1.588
G0Z5.080
G0X49.663Y29.984
G1Z-2.000F300.0
G1Y30.660F1000.0
X49.672Y30.827
X49.639Y30.940
G2X49.455Y31.480I1.387J0.773
G1X49.367Y31.892
G2X49.288Y32.389I1.508J0.497
G1Y32.764
G2X49.363Y33.248I1.587J0.000
G2X49.570Y33.999I1.587J-0.033
G1X49.645Y34.150
G2X50.016Y34.675I1.455J-0.634
G2X50.542Y35.047I1.159J-1.084
G1X50.692Y35.122
G2X51.476Y35.329I0.784J-1.380
G1X51.702
G2X52.486Y35.122I0.000J-1.588
G1X52.636Y35.047
X52.992Y34.832
X53.012Y34.821
X53.308Y34.652
G2X53.893Y34.529I-0.028J-1.587
G2X54.665Y34.074I-0.388J-1.539
G1X54.740Y33.999
X54.815Y33.924
X54.890Y33.849
X54.965Y33.774
G2X55.250Y33.418I-1.084J-1.159
G2X56.093Y32.947I-0.317J-1.556
G2X56.464Y32.421I-1.084J-1.159
G2X56.671Y31.637I-1.380J-0.784
G1Y31.562
G2X56.464Y30.778I-1.587J0.000
G2X56.093Y30.252I-1.455J0.634
G2X55.330Y29.800I-1.159J1.084
G1X55.191Y29.731
X54.804Y29.574
X54.674Y29.509
X54.665Y29.501
X54.590Y29.426
X54.515Y29.351
X54.439Y29.275
X54.325Y29.165
X54.281Y29.116
X54.070Y28.768
G2X53.763Y28.374I-1.391J0.765
G2X53.237Y28.002I-1.159J1.084
G1X53.087Y27.927
G2X52.303Y27.720I-0.784J1.380
G1X52.078
G2X51.293Y27.927I0.000J1.588
G1X51.143Y28.002
G2X50.681Y28.310I0.634J1.455
G2X50.317Y28.599I0.796J1.374
G1X50.242Y28.674
G2X49.871Y29.200I1.084J1.159
G2X49.663Y29.984I1.380J0.784
G0Z5.080
G0X63.460Y0.001
G1Z-3.000F300.0
G1X0.040F1000.0
X0.004Y0.004
X0.000Y0.058
Y2.224
X63.500
Y4.446
X0.000
Y6.669
X63.500
Y8.891
X0.000
Y11.114
X63.500
Y13.336
X0.000
Y15.559
X63.500
Y17.781
X0.000
Y20.004
X63.500
Y22.226
X0.000
Y24.449
X63.500
Y26.671
X56.232
X56.324Y26.815
X56.443Y26.986
X56.539Y27.171
X56.628Y27.354
X56.693Y27.550
X56.733Y27.751
X56.746Y27.955
Y28.180
X56.733Y28.384
X56.693Y28.586
X56.628Y28.781
X56.573Y28.894
X63.500
Y31.116
X58.128
X58.161Y31.283
X58.174Y31.487
Y31.863
X58.161Y32.066
X58.121Y32.268
X58.056Y32.463
X57.967Y32.647
X57.867Y32.838
X57.743Y33.015
X57.596Y33.172
X57.520Y33.248
X57.445Y33.323
X57.428Y33.339
X63.500
Y35.561
X54.533
X54.483Y35.586
X54.269Y35.657
X54.110Y35.714
X53.945Y35.753
X53.777Y35.775
X53.677Y35.805
X53.546Y35.870
X53.538Y35.878
X53.462Y35.953
X53.387Y36.028
X53.312Y36.103
X53.237Y36.178
X53.066Y36.337
X52.873Y36.468
X52.644Y36.649
X52.789Y36.832
X52.908Y37.038
X52.994Y37.260
X53.047Y37.492
X53.064Y37.724
Y37.784
X63.500
Y40.006
X57.188
X57.217Y40.090
X57.258Y40.296
X57.272Y40.505
Y41.300
X57.297Y41.385
X57.366Y41.524
X57.376Y41.544
X57.497Y41.718
X57.595Y41.909
X57.666Y42.112
X57.690Y42.229
X63.500
Y44.451
X57.204
X57.070Y44.595
X56.912Y44.742
X56.735Y44.867
X56.544Y44.966
X56.394Y45.041
X56.210Y45.130
X56.015Y45.196
X55.813Y45.235
X55.609Y45.248
X55.083
X54.880Y45.235
X54.678Y45.196
X54.483Y45.130
X54.299Y45.041
X54.108Y44.942
X53.931Y44.817
X53.774Y44.670
X53.699Y44.595
X53.623Y44.520
X53.555Y44.451
G0Z5.080
G0X52.983Y40.006
G1Z-3.000F300.0
G1X52.190F1000.0
G0Z5.080
G0X51.782Y26.671
G1Z-3.000F300.0
G1X0.000F1000.0
Y28.894
X49.347
X49.345Y28.899
X49.255Y29.083
X49.190Y29.278
X49.150Y29.480
X49.137Y29.683
Y30.435
X49.151Y30.644
X49.193Y30.850
X49.261Y31.048
X49.281Y31.116
X0.000
Y33.339
X48.912
Y33.441
X48.928Y33.666
X48.921Y33.725
X48.810Y34.030
X48.742Y34.228
X48.700Y34.434
X48.686Y34.643
Y35.395
X48.697Y35.561
X0.000
Y37.784
X48.697
X48.691Y37.829
X48.647Y37.991
X48.620Y38.157
X48.611Y38.325
Y39.002
X48.626Y39.214
X48.669Y39.427
X48.743Y39.634
X48.843Y39.828
X48.969Y40.006
X48.970Y40.006
X0.000
G0Z5.080
G0X52.983
G1Z-3.000F300.0
G1X52.970Y40.204F1000.0
Y41.074
X52.943Y41.169
X52.875Y41.367
X52.833Y41.573
X52.820Y41.782
Y42.229
X0.000
Y44.451
X53.555
G0Z5.080
G0X0.000Y46.674
G1Z-3.000F300.0
G1X63.500F1000.0
Y48.896
X33.169
X33.243Y49.039
X33.332Y49.222
X33.398Y49.418
X33.437Y49.619
X33.450Y49.823
Y49.898
X33.450Y49.936
X33.450Y49.973
Y50.049
X33.436Y50.258
X33.395Y50.464
X33.327Y50.662
X33.261Y50.865
X33.168Y51.058
X33.137Y51.119
X63.500
Y53.341
X30.565
X30.515Y53.551
X30.485Y53.760
X30.427Y53.964
X30.365Y54.228
X30.334Y54.437
X30.277Y54.640
X30.219Y54.890
Y55.127
X30.273Y55.349
X30.292Y55.564
X63.500
Y57.786
X30.590
X30.584Y57.894
X30.553Y58.073
X30.502Y58.247
X30.452Y58.473
X30.369Y58.688
Y58.734
X30.425Y58.972
X30.444Y59.217
Y59.936
X30.465Y60.009
X63.500
Y62.231
X31.385
X31.508Y62.404
X31.628Y62.545
X31.731Y62.701
X31.815Y62.866
X31.904Y63.050
X31.970Y63.245
X32.009Y63.447
X32.022Y63.650
Y64.176
X32.012Y64.357
X31.995Y64.454
X63.500
Y66.676
X30.428
X30.409Y66.683
X30.197Y66.726
X29.984Y66.741
X29.233
X29.024Y66.727
X28.817Y66.685
X28.790Y66.676
G0Z5.080
G0X24.177Y53.341
G1Z-3.000F300.0
G1X23.000F1000.0
X22.884Y53.518
X22.773Y53.692
X22.641Y53.850
X22.537Y54.007
X22.415Y54.151
X22.282Y54.345
X22.271Y54.365
X22.196Y54.515
X22.097Y54.706
X21.972Y54.883
X21.825Y55.041
X21.750Y55.116
X21.675Y55.191
X21.600Y55.266
X21.525Y55.341
X21.369Y55.487
X21.260Y55.564
X23.686
X23.685Y55.564
G0Z5.080
G0X0.000Y48.896
G1Z-3.000F300.0
G1X21.381F1000.0
X21.202Y48.987
X21.028Y49.108
X20.798Y49.262
X20.598Y49.328
X20.408Y49.420
X20.257Y49.495
X20.066Y49.594
X19.889Y49.719
X19.732Y49.866
X19.656Y49.941
X19.509Y50.099
X19.385Y50.276
X19.285Y50.467
X19.166Y50.731
X19.130Y50.768
X18.952Y50.965
X18.782Y51.119
X0.000
Y53.341
X16.747
X16.722Y53.418
X16.654Y53.616
X16.612Y53.822
X16.598Y54.031
Y54.482
X16.613Y54.695
X16.656Y54.908
X16.730Y55.114
X16.830Y55.309
X16.956Y55.486
X17.029Y55.564
X0.000
Y57.786
X22.597
X22.529Y57.886
X22.428Y58.089
X22.358Y58.303
X22.322Y58.396
X22.192Y58.544
X22.080Y58.708
X21.991Y58.883
X21.916Y59.034
X21.824Y59.222
X21.759Y59.421
X21.672Y59.602
X21.609Y59.794
X21.571Y59.993
X21.570Y60.009
X0.000
Y62.231
X22.560
X22.598Y62.256
X22.738Y62.405
X22.813Y62.480
X22.888Y62.555
X23.043Y62.700
X23.217Y62.824
X23.405Y62.923
X23.547Y63.043
X23.703Y63.145
X23.855Y63.274
X23.945Y63.457
X24.044Y63.649
X24.169Y63.826
X24.316Y63.983
X24.582Y64.211
X24.621Y64.284
X24.696Y64.434
X24.706Y64.454
X0.000
Y66.676
X28.790
G0Z5.080
G0X0.000Y68.899
G1Z-3.000F300.0
G1X63.500F1000.0
Y71.121
X0.000
Y73.344
X63.500
Y75.566
X0.000
Y77.789
X63.500
Y80.011
X0.000
Y82.234
X63.500
Y84.456
X0.000
Y86.678
X63.500
Y88.842
X63.496Y88.896
X63.460Y88.899
X0.040
G0Z5.080
G0X31.815Y62.866
G1Z-3.000F300.0
G2X31.508Y62.404I-1.455J0.634F1000.0
G1X31.337Y62.163
X31.298Y62.060
X31.266Y61.951
G2X31.064Y61.288I-1.583J0.121
G1X30.849Y60.932
X30.747Y60.770
X30.697Y60.632
X30.544Y60.247
X30.471Y60.031
X30.444Y59.936
Y59.217
G2X30.369Y58.734I-1.588J0.000
G1Y58.688
G2X30.502Y58.247I-1.437J-0.674
G2X30.595Y57.714I-1.495J-0.533
G1Y57.338
G2X30.515Y56.841I-1.588J0.000
G1X30.427Y56.429
X30.369Y56.179
Y56.060
G2X30.294Y55.577I-1.587J0.000
G2X30.219Y55.127I-1.587J0.033
G1Y54.890
X30.277Y54.640
X30.365Y54.228
X30.427Y53.964
X30.515Y53.551
X30.577Y53.287
X30.616Y53.163
X30.693Y53.087
X30.768Y53.012
X30.843Y52.936
X30.855Y52.925
X31.049Y52.792
G2X31.444Y52.486I-0.765J-1.391
G1X31.519Y52.410
X31.531Y52.399
X31.772Y52.228
X32.046Y52.105
G2X32.508Y51.798I-0.634J-1.455
G2X33.168Y51.058I-0.796J-1.374
G1X33.327Y50.662
G2X33.450Y50.049I-1.464J-0.613
G1Y49.973
X33.450Y49.936
X33.450Y49.898
Y49.823
G2X33.243Y49.039I-1.588J0.000
G2X32.872Y48.513I-1.455J0.634
G1X32.797Y48.438
X32.722Y48.363
X32.646Y48.288
X32.571Y48.213
X32.496Y48.138
X32.421Y48.062
X32.306Y47.952
X32.260Y47.900
G2X31.681Y47.322I-1.374J0.796
G2X30.585Y46.883I-1.096J1.148
G1X30.134
G2X29.350Y47.090I0.000J1.588
G1X28.994Y47.305
X28.768Y47.455
X28.607Y47.557
X28.549Y47.576
G2X27.998Y47.766I0.233J1.570
G1X27.859Y47.835
X27.472Y47.992
G2X27.080Y48.236I0.634J1.455
G1X26.978
X26.904Y48.237
X26.615Y48.133
G2X26.001Y48.010I-0.613J1.464
G1X25.475
G2X24.862Y48.133I0.000J1.587
G1X24.466Y48.292
X24.315Y48.368
X23.959Y48.582
X23.940Y48.593
X23.899Y48.611
X23.822
G2X23.084Y48.793I0.000J1.588
G1X22.770Y48.762
X22.018
G2X21.028Y49.108I0.000J1.588
G1X20.798Y49.262
X20.408Y49.420
X20.257Y49.495
G2X19.732Y49.866I0.634J1.455
G1X19.656Y49.941
G2X19.285Y50.467I1.084J1.159
G1X19.166Y50.731
X19.130Y50.768
X18.952Y50.965
X18.755Y51.143
X18.680Y51.219
X18.604Y51.294
X18.596Y51.302
G2X18.078Y51.670I0.642J1.452
G1X18.003Y51.745
X17.928Y51.820
G2X17.611Y52.234I1.084J1.159
G1X17.402Y52.421
X17.327Y52.496
X17.252Y52.571
X17.177Y52.646
G2X16.722Y53.418I1.084J1.159
G2X16.598Y54.031I1.464J0.613
G1Y54.482
G2X17.101Y55.642I1.588J0.000
G1X17.177Y55.717
X17.252Y55.792
X17.327Y55.867
G2X18.486Y56.370I1.159J-1.084
G1X19.163
G2X20.322Y55.867I0.000J-1.587
G1X20.346Y55.844
X20.365
G2X21.525Y55.341I0.000J-1.587
G1X21.600Y55.266
X21.675Y55.191
X21.750Y55.116
X21.825Y55.041
G2X22.196Y54.515I-1.084J-1.159
G1X22.271Y54.365
X22.282Y54.345
X22.415Y54.151
X22.641Y53.850
X22.884Y53.518
X23.044Y53.274
X23.253Y53.087
X23.328Y53.012
X23.340Y53.000
X23.653Y52.763
X23.956
X24.011Y52.916
X24.164Y53.301
X24.222Y53.481
X24.188Y53.806
Y54.268
X24.095Y54.450
X24.020Y54.600
X23.945Y54.750
G2X23.755Y55.301I1.380J0.784
G1X23.685Y55.564
X23.562Y55.889
X23.494Y56.028
X23.418Y56.178
X23.265Y56.553
G2X22.968Y57.005I1.158J1.086
G2X22.787Y57.500I1.380J0.784
G1X22.656Y57.700
G2X22.358Y58.303I1.241J0.990
G1X22.322Y58.396
G2X21.991Y58.883I1.124J1.121
G1X21.916Y59.034
X21.759Y59.421
G2X21.558Y60.193I1.387J0.773
G1Y60.569
G2X21.765Y61.353I1.588J0.000
G2X22.136Y61.879I1.455J-0.634
G1X22.212Y61.954
G2X22.598Y62.256I1.159J-1.084
G1X22.738Y62.405
X22.813Y62.480
X22.888Y62.555
G2X23.405Y62.923I1.159J-1.084
G1X23.703Y63.145
X23.855Y63.274
X23.945Y63.457
G2X24.316Y63.983I1.455J-0.634
G1X24.582Y64.211
X24.621Y64.284
X24.696Y64.434
X24.771Y64.585
X24.840Y64.724
X24.997Y65.111
X25.072Y65.261
G2X25.443Y65.787I1.455J-0.634
G1X25.518Y65.862
X25.593Y65.937
X25.668Y66.012
G2X26.194Y66.383I1.159J-1.084
G2X26.978Y66.590I0.784J-1.380
G1X27.579
X27.617Y66.590
X27.654Y66.590
X28.180
X28.455Y66.567
X28.619Y66.617
G2X29.233Y66.741I0.613J-1.464
G1X29.984
G2X31.144Y66.238I0.000J-1.588
G1X31.219Y66.162
G2X31.590Y65.637I-1.084J-1.159
G1X31.665Y65.486
X31.824Y65.090
X31.930Y64.710
G2X32.022Y64.176I-1.495J-0.533
G1Y63.650
G2X31.815Y62.866I-1.588J0.000
G0Z5.080
G0X56.544Y38.894
G1Z-3.000F300.0
G2X56.018Y38.523I-1.159J1.084F1000.0
G2X55.234Y38.316I-0.784J1.380
G1X54.783
G2X53.623Y38.819I0.000J1.588
G1X53.548Y38.894
G2X53.177Y39.420I1.084J1.159
G2X52.970Y40.204I1.380J0.784
G1Y41.074
X52.943Y41.169
G2X52.820Y41.782I1.464J0.613
G1Y42.609
G2X52.943Y43.222I1.587J0.000
G1X53.018Y43.448
X53.093Y43.673
G2X53.548Y44.445I1.539J-0.388
G1X53.623Y44.520
X53.699Y44.595
X53.774Y44.670
G2X54.299Y45.041I1.159J-1.084
G2X55.083Y45.248I0.784J-1.380
G1X55.609
G2X56.394Y45.041I0.000J-1.588
G1X56.544Y44.966
G2X57.070Y44.595I-0.634J-1.455
G2X57.441Y44.069I-1.084J-1.159
G1X57.516Y43.919
G2X57.723Y43.135I-1.380J-0.784
G1Y42.534
G2X57.376Y41.544I-1.588J0.000
G1X57.366Y41.524
X57.297Y41.385
X57.272Y41.300
Y40.505
G2X57.149Y39.891I-1.587J0.000
G2X56.850Y39.289I-1.539J0.388
G2X56.544Y38.894I-1.391J0.765
G0Z5.080
G0X50.467Y27.772
G1Z-3.000F300.0
G1X50.392Y27.848F1000.0
X50.380Y27.859
X50.080Y28.084
G2X49.716Y28.374I0.796J1.374
G2X49.345Y28.899I1.084J1.159
G2X49.137Y29.683I1.380J0.784
G1Y30.435
G2X49.261Y31.048I1.588J0.000
G1X49.302Y31.186
X49.263Y31.316
X49.110Y31.700
G2X48.992Y32.192I1.464J0.613
G2X48.912Y32.689I1.508J0.497
G1Y33.441
X48.928Y33.666
X48.921Y33.725
X48.810Y34.030
G2X48.686Y34.643I1.464J0.613
G1Y35.395
G2X48.810Y36.008I1.588J0.000
G2X49.160Y36.672I1.539J-0.388
G2X48.810Y37.336I1.189J1.052
G2X48.691Y37.829I1.464J0.613
G2X48.611Y38.325I1.508J0.497
G1Y39.002
G2X49.114Y40.161I1.588J0.000
G1X49.190Y40.236
G2X50.349Y40.740I1.159J-1.084
G1X50.725
G2X51.509Y40.532I0.000J-1.588
G2X52.035Y40.161I-0.634J-1.455
G1X52.110Y40.086
X52.185Y40.011
X52.260Y39.936
G2X52.737Y39.065I-1.084J-1.159
G2X53.064Y38.100I-1.260J-0.965
G1Y37.724
G2X52.644Y36.649I-1.587J0.000
G1X52.873Y36.468
G2X53.237Y36.178I-0.796J-1.374
G1X53.312Y36.103
X53.387Y36.028
X53.462Y35.953
X53.538Y35.878
X53.546Y35.870
X53.677Y35.805
X53.777Y35.775
G2X54.269Y35.657I-0.121J-1.583
G2X55.041Y35.201I-0.388J-1.539
G1X55.116Y35.126
G2X55.487Y34.601I-1.084J-1.159
G1X55.636Y34.243
X55.922Y34.154
X56.318Y33.995
X56.469Y33.919
X56.761Y33.753
G2X57.445Y33.323I-0.475J-1.515
G1X57.520Y33.248
X57.596Y33.172
G2X57.967Y32.647I-1.084J-1.159
G2X58.174Y31.863I-1.380J-0.784
G1Y31.487
G2X57.967Y30.703I-1.588J0.000
G2X57.596Y30.177I-1.455J0.634
G1X57.520Y30.102
X57.445Y30.027
X57.370Y29.952
G2X56.975Y29.645I-1.159J1.084
G1X56.619Y29.430
X56.469Y29.355
X56.346Y29.293
X56.539Y28.965
G2X56.746Y28.180I-1.380J-0.784
G1Y27.955
G2X56.539Y27.171I-1.587J0.000
G1X56.324Y26.815
G2X55.698Y26.188I-1.391J0.765
G2X54.708Y25.841I-0.990J1.241
G1X54.589
X54.494Y25.814
G2X53.881Y25.691I-0.613J1.464
G1X53.580
G2X52.967Y25.814I0.000J1.588
G1X52.571Y25.974
G2X52.045Y26.345I0.634J1.455
G2X51.747Y26.723I1.084J1.159
G2X51.369Y27.021I0.781J1.382
G1X51.294Y27.096
X51.219Y27.171
X51.143Y27.246
X51.132Y27.258
X50.831Y27.483
G2X50.467Y27.772I0.796J1.374
G0Z5.080
G0X63.442Y0.000
G1Z-3.000F300.0
G1X63.496Y0.004F1000.0
X63.500Y0.058
Y88.842
X63.496Y88.896
X63.442Y88.900
X0.058
X0.004Y88.896
X0.000Y88.842
Y0.058
X0.004Y0.004
X0.058Y0.000
X63.442
G0Z5.080
G0X33.507Y0.001
G1Z-4.000F300.0
G1X0.040F1000.0
X0.004Y0.004
X0.000Y0.058
Y2.224
X35.096
X35.245Y2.296
X35.440Y2.361
X35.642Y2.401
X35.846Y2.414
X36.296
X36.509Y2.400
X36.722Y2.356
X36.928Y2.283
X37.042Y2.224
X38.021
G0Z5.080
G0X63.460Y0.001
G1Z-4.000F300.0
G1X40.267F1000.0
X40.489Y0.096
X40.699Y0.228
X40.887Y0.392
X41.047Y0.583
X41.173Y0.792
X41.306Y0.893
X41.507Y0.912
X41.706Y0.958
X41.899Y1.028
X42.081Y1.123
X42.246Y1.239
X42.266Y1.250
X42.451Y1.345
X42.622Y1.464
X42.642Y1.475
X42.806Y1.559
X42.960Y1.661
X43.101Y1.780
X43.289Y1.878
X43.463Y2.002
X43.618Y2.147
X43.693Y2.222
X43.695Y2.224
X63.500
Y4.446
X44.222
X44.215Y4.465
X44.115Y4.659
X43.989Y4.836
X43.844Y4.992
X43.688Y5.138
X43.511Y5.263
X43.316Y5.364
X43.109Y5.437
X42.897Y5.481
X42.684Y5.495
X42.459
X42.223Y5.478
X41.991Y5.425
X41.771Y5.339
X41.632Y5.345
X41.331
X41.128Y5.332
X40.926Y5.292
X40.731Y5.227
X40.547Y5.138
X40.397Y5.063
X40.219Y4.971
X40.052Y4.857
X39.900Y4.722
X39.768Y4.569
X39.686Y4.446
X0.000
G0Z5.080
G0Y6.669
G1Z-4.000F300.0
G1X63.500F1000.0
Y8.891
X0.000
Y11.114
X63.500
Y13.336
X0.000
Y15.559
X63.500
Y17.781
X0.000
Y20.004
X63.500
Y22.226
X0.000
Y24.449
X63.500
Y26.671
X57.177
X57.219Y26.798
X57.259Y27.000
X57.272Y27.204
Y28.556
X57.254Y28.795
X57.231Y28.894
X63.500
Y31.116
X59.375
X59.395Y31.154
X59.484Y31.337
X59.549Y31.532
X59.589Y31.734
X59.602Y31.938
Y32.464
X59.589Y32.668
X59.549Y32.869
X59.484Y33.064
X59.395Y33.248
X59.347Y33.339
X63.500
Y35.561
X56.171
X56.163Y35.578
X56.068Y35.763
X55.949Y35.934
X55.860Y36.076
X55.758Y36.208
X55.642Y36.329
X55.498Y36.465
X55.337Y36.582
X55.164Y36.678
X55.111Y36.780
X55.096Y36.813
X55.234
X55.446Y36.827
X55.659Y36.871
X55.866Y36.944
X56.060Y37.045
X56.238Y37.171
X56.393Y37.316
X56.468Y37.391
X56.544Y37.467
X56.619Y37.542
X56.694Y37.617
X56.706Y37.628
X56.898Y37.759
X56.925Y37.784
X63.500
Y40.006
X58.099
Y40.655
X58.080Y40.900
X58.023Y41.139
X57.980Y41.474
X58.042Y41.599
X58.117Y41.750
X58.192Y41.900
X58.267Y42.050
X58.352Y42.229
X63.500
Y44.451
X58.162
X58.125Y44.505
X57.971Y44.670
X57.851Y44.786
X57.719Y44.889
X57.576Y44.977
X57.417Y45.089
X57.244Y45.181
X57.062Y45.251
X56.931Y45.335
X56.709Y45.512
X56.659Y45.584
X56.595Y45.873
X56.583Y46.043
X56.552Y46.211
X56.503Y46.374
X56.462Y46.567
X56.425Y46.674
X63.500
Y48.896
G0Z5.080
G0X51.110Y26.671
G1Z-4.000F300.0
G1X0.000F1000.0
Y28.894
X48.818
X48.779Y29.075
X48.728Y29.249
X48.697Y29.428
X48.686Y29.608
Y29.834
X48.695Y30.002
X48.722Y30.168
X48.766Y30.331
X48.788Y30.498
X48.828Y30.663
X48.885Y30.823
X48.955Y31.036
X48.929Y31.116
X0.000
Y33.339
X48.546
X48.557Y33.474
X48.518Y33.558
X48.507Y33.578
X48.381Y33.761
X48.281Y33.961
X48.211Y34.171
X48.128Y34.343
X48.067Y34.524
X48.027Y34.711
X47.976Y34.885
X47.945Y35.064
X47.935Y35.244
Y35.561
X0.000
Y37.784
X48.158
X48.127Y37.891
X48.096Y38.070
X48.085Y38.250
Y38.294
X48.029Y38.532
X48.010Y38.776
Y39.603
X48.023Y39.807
X48.062Y40.006
X0.000
Y42.229
X52.143
Y42.609
X52.156Y42.812
X52.196Y43.014
X52.261Y43.209
X52.350Y43.393
X52.390Y43.477
X52.373Y43.615
X52.313Y43.867
X52.264Y43.948
X52.146Y44.119
X52.050Y44.305
X51.997Y44.451
X0.000
Y46.674
X28.523
X28.531Y46.662
X28.633Y46.530
X28.749Y46.409
X28.907Y46.262
X29.084Y46.137
X29.275Y46.038
X29.425Y45.963
X29.609Y45.874
X29.804Y45.808
X30.006Y45.769
X30.209Y45.756
X30.510
X30.714Y45.769
X30.916Y45.808
X31.111Y45.874
X31.294Y45.963
X31.444Y46.038
X31.595Y46.113
X31.786Y46.212
X31.963Y46.337
X32.120Y46.484
X32.196Y46.559
X32.271Y46.635
X32.310Y46.674
G0Z5.080
G0X0.000
G1Z-4.000F300.0
G1X28.523F1000.0
X28.531Y46.662
X28.633Y46.530
X28.749Y46.409
X28.907Y46.262
X29.084Y46.137
X29.275Y46.038
X29.425Y45.963
X29.609Y45.874
X29.804Y45.808
X30.006Y45.769
X30.209Y45.756
X30.510
X30.714Y45.769
X30.916Y45.808
X31.111Y45.874
X31.294Y45.963
X31.444Y46.038
X31.595Y46.113
X31.786Y46.212
X31.963Y46.337
X32.120Y46.484
X32.196Y46.559
X32.271Y46.635
X32.310Y46.674
X33.388
G0Z5.080
G0X32.310
G1Z-4.000F300.0
G1X33.388F1000.0
X33.402Y46.654
X33.553Y46.428
X33.641Y46.286
X33.744Y46.154
X33.859Y46.033
X33.935Y45.958
X34.092Y45.811
X34.269Y45.686
X34.460Y45.587
X34.644Y45.498
X34.839Y45.433
X35.041Y45.393
X35.244Y45.380
X35.695
X35.908Y45.394
X36.121Y45.438
X36.327Y45.511
X36.522Y45.612
X36.699Y45.738
X36.855Y45.883
X36.930Y45.958
X37.005Y46.033
X37.080Y46.109
X37.155Y46.184
X37.230Y46.259
X37.239Y46.267
X37.427Y46.366
X37.601Y46.489
X37.757Y46.635
X37.796Y46.674
X51.762
G0Z5.080
G0X63.500Y48.896
G1Z-4.000F300.0
G1X38.560F1000.0
Y49.072
X38.547Y49.275
X38.508Y49.477
X38.442Y49.672
X38.353Y49.856
X38.254Y50.047
X38.129Y50.224
X37.982Y50.381
X37.824Y50.528
X37.648Y50.653
X37.456Y50.753
X37.273Y50.842
X37.078Y50.907
X36.876Y50.947
X36.672Y50.960
X36.221
X36.017Y50.946
X35.815Y50.907
X35.620Y50.841
X35.407Y50.912
X35.190Y50.984
X35.182Y50.989
X34.992Y51.119
X63.500
Y53.341
X31.133
X31.103Y53.438
X31.045Y53.687
Y53.881
X31.035Y54.062
X31.004Y54.241
X30.953Y54.415
X30.903Y54.640
X30.820Y54.856
Y54.901
X30.876Y55.140
X30.895Y55.384
Y55.427
X30.930Y55.564
X63.500
Y57.786
X31.271
Y57.939
X31.257Y58.148
X31.216Y58.354
X31.148Y58.552
X31.141Y58.578
X31.148Y58.603
X31.216Y58.801
X31.257Y59.008
X31.271Y59.217
Y59.818
X31.257Y60.009
X63.500
Y62.231
X32.474
X32.492Y62.265
X32.581Y62.449
X32.646Y62.644
X32.686Y62.846
X32.699Y63.049
Y63.575
X32.686Y63.779
X32.646Y63.981
X32.581Y64.176
X32.492Y64.359
X32.438Y64.454
X63.500
Y66.676
X32.099
X32.038Y66.846
X31.938Y67.036
X31.814Y67.211
X31.670Y67.365
X31.594Y67.440
X31.439Y67.585
X31.261Y67.711
X31.067Y67.812
X30.860Y67.885
X30.648Y67.929
X30.435Y67.943
X29.984
X29.784Y67.930
X29.585Y67.892
X29.393Y67.829
X29.211Y67.742
X29.075Y67.701
X28.881Y67.659
X28.694Y67.594
X28.469Y67.519
X28.179Y67.415
X28.105Y67.417
X28.094
X27.913Y67.511
X27.703Y67.610
X27.479Y67.678
X27.250Y67.713
X27.086Y67.757
X27.121Y67.926
X27.178Y68.130
X27.208Y68.339
X27.252Y68.501
X27.279Y68.668
X27.288Y68.836
Y68.899
X63.500
Y71.121
X27.154
X27.132Y71.164
X27.007Y71.340
X26.860Y71.498
X26.703Y71.645
X26.526Y71.770
X26.334Y71.869
X26.184Y71.944
X25.974Y72.044
X25.751Y72.112
X25.521Y72.147
X25.421Y72.176
X25.234Y72.265
X25.036Y72.329
X24.849Y72.394
X24.656Y72.435
X24.510Y72.479
X24.312Y72.547
X24.106Y72.588
X23.897Y72.602
X23.446
X23.243Y72.589
X23.041Y72.550
X22.846Y72.484
X22.662Y72.395
X22.471Y72.296
X22.294Y72.171
X22.136Y72.024
X22.020Y71.904
X21.918Y71.771
X21.830Y71.629
X21.709Y71.455
X21.611Y71.264
X21.561Y71.121
G0Z5.080
G0X0.000Y46.674
G1Z-4.000F300.0
G1Y48.896F1000.0
X20.381
X20.327Y48.983
X20.247Y49.093
X20.027Y49.197
X19.826Y49.334
X19.684Y49.422
X19.551Y49.525
X19.431Y49.641
X19.315Y49.761
X19.212Y49.893
X19.124Y50.035
X18.991Y50.230
X18.980Y50.242
X18.905Y50.317
X18.893Y50.328
X18.701Y50.459
X18.529Y50.617
X18.400Y50.753
X18.289Y50.903
X18.139Y51.015
X18.029Y51.119
X0.000
Y53.341
X16.270
X16.190Y53.506
X16.125Y53.701
X16.085Y53.903
X16.072Y54.107
Y55.159
X16.081Y55.327
X16.108Y55.493
X16.127Y55.564
X0.000
Y57.786
X21.973
X21.843Y57.976
X21.739Y58.195
X21.560Y58.247
X21.369Y58.288
X21.184Y58.352
X21.009Y58.437
X20.818Y58.537
X20.641Y58.662
X20.483Y58.809
X20.408Y58.884
X20.333Y58.959
X20.139Y59.177
X19.929Y59.244
X19.731Y59.339
X19.540Y59.438
X19.363Y59.563
X19.206Y59.710
X19.130Y59.785
X19.055Y59.861
X18.917Y60.009
X0.000
Y62.231
X18.649
X18.671Y62.299
X18.772Y62.503
X18.902Y62.690
X19.055Y62.856
X19.221Y63.009
X19.408Y63.139
X19.613Y63.240
X19.827Y63.311
X20.025Y63.379
X20.231Y63.420
X20.440Y63.434
X20.966
X21.147Y63.424
X21.326Y63.393
X21.500Y63.342
X21.793Y63.269
X21.922Y63.309
X22.061Y63.377
X22.211Y63.453
X22.520Y63.587
X22.735Y63.717
X22.882Y63.902
X23.057Y64.064
X23.252Y64.197
X23.264Y64.209
X23.435Y64.367
X23.563Y64.454
X0.000
Y66.676
X23.531
X23.376Y66.811
X23.228Y66.982
X23.107Y67.169
X23.007Y67.310
X22.922Y67.461
X22.855Y67.620
X22.676Y67.717
X22.510Y67.837
X22.362Y67.977
X22.287Y68.052
X22.212Y68.127
X22.064Y68.284
X21.940Y68.461
X21.840Y68.653
X21.765Y68.803
X21.717Y68.899
X0.000
Y71.121
X21.561
G0Z5.080
G0X0.000Y73.344
G1Z-4.000F300.0
G1X63.500F1000.0
Y75.566
X0.000
Y77.789
X63.500
Y80.011
X0.000
Y82.234
X63.500
Y84.456
X0.000
Y86.678
X63.500
Y88.842
X63.496Y88.896
X63.460Y88.899
X0.040
G0Z5.080
G0X22.398Y55.564
G1Z-4.000F300.0
G1X23.087F1000.0
G0Z5.080
G0X39.014Y0.001
G1Z-4.000F300.0
G1X38.044F1000.0
G0Z5.080
G0X24.506Y66.164
G1Z-4.000F300.0
G1X24.090Y66.328F1000.0
X23.734Y66.543
G2X23.107Y67.169I0.765J1.391
G2X22.855Y67.620I1.241J0.990
G2X22.362Y67.977I0.667J1.441
G1X22.287Y68.052
X22.212Y68.127
G2X21.840Y68.653I1.084J1.159
G1X21.765Y68.803
X21.690Y68.953
G2X21.483Y69.737I1.380J0.784
G1Y70.639
G2X21.830Y71.629I1.588J0.000
G2X22.136Y72.024I1.391J-0.765
G2X22.662Y72.395I1.159J-1.084
G2X23.446Y72.602I0.784J-1.380
G1X23.897
G2X24.510Y72.479I0.000J-1.588
G1X24.656Y72.435
X25.036Y72.329
X25.421Y72.176
X25.521Y72.147
G2X26.184Y71.944I-0.121J-1.583
G1X26.334Y71.869
G2X26.860Y71.498I-0.634J-1.455
G2X27.231Y70.972I-1.084J-1.159
G1X27.306Y70.822
G2X27.514Y70.038I-1.380J-0.784
G1Y69.812
G2X27.313Y69.040I-1.588J0.000
G1X27.288Y68.954
Y68.836
G2X27.208Y68.339I-1.587J0.000
G1X27.121Y67.926
X27.086Y67.757
X27.250Y67.713
G2X27.913Y67.511I-0.121J-1.583
G1X28.094Y67.417
X28.105
X28.179Y67.415
X28.469Y67.519
X28.694Y67.594
X29.075Y67.701
X29.211Y67.742
G2X29.984Y67.943I0.773J-1.387
G1X30.435
G2X31.594Y67.440I0.000J-1.588
G1X31.670Y67.365
G2X32.156Y66.438I-1.084J-1.159
G1X32.243Y66.026
G2X32.323Y65.529I-1.508J-0.497
G1Y64.655
X32.492Y64.359
G2X32.699Y63.575I-1.380J-0.784
G1Y63.049
G2X32.492Y62.265I-1.588J0.000
G2X32.120Y61.739I-1.455J0.634
G1X32.045Y61.664
X31.970Y61.589
X31.969Y61.587
X31.899Y61.384
X31.740Y60.987
X31.665Y60.837
G2X31.358Y60.375I-1.455J0.634
G1X31.327Y60.324
X31.255Y60.040
X31.271Y59.818
Y59.217
G2X31.148Y58.603I-1.588J0.000
G1X31.141Y58.578
X31.148Y58.552
G2X31.271Y57.939I-1.464J-0.613
G1Y57.112
G2X31.179Y56.579I-1.588J0.000
G1X31.073Y56.199
X31.028Y56.053
X30.966Y55.789
X30.895Y55.427
Y55.384
G2X30.820Y54.901I-1.588J0.000
G1Y54.856
G2X30.953Y54.415I-1.437J-0.674
G2X31.045Y53.881I-1.495J-0.533
G1Y53.687
X31.103Y53.438
X31.148Y53.292
X31.240Y52.991
X31.294Y52.936
X31.369Y52.861
X31.381Y52.850
X31.681Y52.625
X31.713Y52.606
X31.863Y52.613
X32.990
G2X34.149Y52.110I0.000J-1.587
G1X34.225Y52.035
X34.300Y51.959
X34.375Y51.884
G2X34.682Y51.490I-1.084J-1.159
G1X34.815Y51.295
X34.826Y51.283
X34.901Y51.208
X34.976Y51.133
X34.988Y51.122
X35.182Y50.989
X35.190Y50.984
X35.407Y50.912
X35.620Y50.841
G2X36.221Y50.960I0.601J-1.469
G1X36.672
G2X37.456Y50.753I0.000J-1.588
G2X37.982Y50.381I-0.634J-1.455
G2X38.353Y49.856I-1.084J-1.159
G2X38.560Y49.072I-1.380J-0.784
G1Y48.395
G2X38.437Y47.782I-1.587J0.000
G1X38.362Y47.556
G2X37.907Y46.785I-1.539J0.388
G1X37.832Y46.710
X37.757Y46.635
G2X37.239Y46.267I-1.159J1.084
G1X37.230Y46.259
X37.155Y46.184
X37.080Y46.109
X37.005Y46.033
X36.930Y45.958
X36.855Y45.883
G2X35.695Y45.380I-1.159J1.084
G1X35.244
G2X34.460Y45.587I0.000J1.587
G2X33.935Y45.958I0.634J1.455
G1X33.859Y46.033
G2X33.553Y46.428I1.084J1.159
G1X33.402Y46.654
X33.286Y46.821
G2X32.764Y46.733I-0.521J1.499
G1X32.370
X32.346Y46.710
X32.271Y46.635
X32.196Y46.559
X32.120Y46.484
G2X31.595Y46.113I-1.159J1.084
G1X31.444Y46.038
X31.294Y45.963
G2X30.510Y45.756I-0.784J1.380
G1X30.209
G2X29.425Y45.963I0.000J1.588
G1X29.275Y46.038
G2X28.749Y46.409I0.634J1.455
G2X28.443Y46.804I1.084J1.159
G1X28.228Y47.160
X28.176Y47.261
G2X27.642Y47.382I0.080J1.585
G1X27.246Y47.541
X26.876Y47.767
X26.685Y47.727
G2X26.151Y47.634I-0.533J1.495
G1X25.550
G2X24.937Y47.758I0.000J1.588
G1X24.541Y47.917
X24.402Y47.985
X24.015Y48.142
X23.864Y48.217
X23.824Y48.236
X23.672
X23.471Y48.248
X23.404Y48.217
X23.253Y48.142
G2X22.469Y47.935I-0.784J1.380
G1X22.093
G2X21.309Y48.142I0.000J1.588
G1X21.159Y48.217
G2X20.633Y48.588I0.634J1.455
G2X20.327Y48.983I1.084J1.159
G1X20.247Y49.093
G2X19.826Y49.334I0.569J1.482
G2X19.431Y49.641I0.765J1.391
G2X19.124Y50.035I1.084J1.159
G1X18.991Y50.230
X18.980Y50.242
X18.905Y50.317
X18.893Y50.328
G2X18.529Y50.617I0.796J1.374
G1X18.289Y50.903
X18.003Y51.143
X17.928Y51.219
G2X17.639Y51.583I1.084J1.159
G1X17.628Y51.594
X17.482Y51.750
X17.327Y51.895
X17.252Y51.970
X17.177Y52.045
X17.101Y52.120
X17.026Y52.196
G2X16.719Y52.590I1.084J1.159
G1X16.569Y52.816
X16.355Y53.172
X16.279Y53.322
G2X16.072Y54.107I1.380J0.784
G1Y55.159
G2X16.152Y55.656I1.588J0.000
G2X16.355Y56.318I1.583J-0.121
G1X16.430Y56.469
G2X16.801Y56.994I1.455J-0.634
G1X16.876Y57.070
G2X17.402Y57.441I1.159J-1.084
G2X18.186Y57.648I0.784J-1.380
G1X18.411
G2X19.195Y57.441I0.000J-1.587
G2X19.721Y57.070I-0.634J-1.455
G1X19.803Y56.987
X19.947Y56.915
X20.140Y56.814
X20.290Y56.821
X20.365
G2X20.899Y56.729I0.000J-1.587
G2X21.825Y56.243I-0.233J-1.570
G1X21.900Y56.168
X21.975Y56.093
X22.051Y56.017
G2X22.357Y55.623I-1.084J-1.159
G2X22.656Y55.020I-1.241J-0.990
G1X22.753Y54.696
X22.884Y54.495
X23.016Y54.301
X23.028Y54.289
X23.039Y54.278
X23.340Y54.052
X23.499Y53.947
X23.560Y54.119
X23.577Y54.182
X23.560Y54.245
X23.485Y54.470
X23.379Y54.851
X23.304Y55.151
X23.284Y55.209
X23.118Y55.502
X23.043Y55.652
X22.886Y56.039
X22.733Y56.424
X22.661Y56.640
X22.510Y57.016
X22.445Y57.147
X22.437Y57.155
G2X22.130Y57.550I1.084J1.159
G1X21.980Y57.776
G2X21.739Y58.195I1.241J0.990
G1X21.560Y58.247
G2X21.009Y58.437I0.233J1.570
G2X20.483Y58.809I0.634J1.455
G1X20.408Y58.884
X20.333Y58.959
X20.139Y59.177
X19.731Y59.339
G2X19.206Y59.710I0.634J1.455
G1X19.130Y59.785
X19.055Y59.861
G2X18.684Y60.386I1.084J1.159
G2X18.477Y61.170I1.380J0.784
G1Y61.471
G2X18.600Y62.084I1.588J0.000
G2X19.055Y62.856I1.539J-0.388
G2X19.827Y63.311I1.159J-1.084
G2X20.440Y63.434I0.613J-1.464
G1X20.966
G2X21.500Y63.342I0.000J-1.588
G1X21.793Y63.269
X21.922Y63.309
X22.061Y63.377
X22.211Y63.453
X22.520Y63.587
X22.735Y63.717
G2X23.252Y64.197I1.312J-0.893
G1X23.264Y64.209
G2X23.628Y64.498I1.159J-1.084
G1X23.639Y64.509
X23.714Y64.584
X23.790Y64.659
X24.056Y64.887
X24.088Y64.949
X24.161Y65.165
X24.236Y65.391
X24.312Y65.616
X24.387Y65.842
X24.506Y66.164
G0Z5.080
G0X52.742Y25.213
G1Z-4.000F300.0
G1X52.345Y25.372F1000.0
G2X51.820Y25.743I0.634J1.455
G1X51.745Y25.819
X51.670Y25.894
X51.594Y25.969
G2X51.223Y26.495I1.084J1.159
G1X51.152Y26.636
X51.143Y26.645
X51.132Y26.656
X50.937Y26.789
X50.712Y26.940
X50.380Y27.182
G2X50.016Y27.472I0.796J1.374
G1X49.941Y27.547
X49.866Y27.622
X49.791Y27.697
X49.779Y27.708
G2X49.415Y27.998I0.796J1.374
G1X49.340Y28.073
X49.265Y28.148
G2X48.779Y29.075I1.084J1.159
G2X48.686Y29.608I1.495J0.533
G1Y29.834
G2X48.766Y30.331I1.588J0.000
G2X48.885Y30.823I1.583J-0.121
G1X48.955Y31.036
G2X48.841Y31.516I1.469J0.601
G1X48.810Y31.625
X48.704Y32.006
X48.628Y32.306
G2X48.536Y32.840I1.495J0.533
G1Y33.215
X48.557Y33.474
X48.518Y33.558
X48.507Y33.578
G2X48.211Y34.171I1.241J0.990
G2X48.027Y34.711I1.387J0.773
G2X47.935Y35.244I1.495J0.533
G1Y36.221
G2X48.010Y36.705I1.588J0.000
G2X48.133Y37.286I1.587J-0.033
G1X48.209Y37.511
X48.215Y37.536
X48.178Y37.717
G2X48.085Y38.250I1.495J0.533
G1Y38.294
G2X48.010Y38.776I1.512J0.483
G1Y39.603
G2X48.217Y40.387I1.587J0.000
G2X48.588Y40.913I1.455J-0.634
G1X48.664Y40.988
G2X49.189Y41.359I1.159J-1.084
G1X49.585Y41.518
G2X50.199Y41.641I0.613J-1.464
G1X50.875
G2X51.409Y41.549I0.000J-1.588
G1X51.789Y41.443
X52.015Y41.368
X52.145Y41.329
X52.159Y41.482
X52.143Y41.707
Y42.609
G2X52.350Y43.393I1.587J0.000
G1X52.390Y43.477
X52.373Y43.615
X52.313Y43.867
X52.264Y43.948
G2X51.935Y44.706I1.241J0.990
G1X51.847Y45.118
X51.772Y45.494
G2X51.692Y45.991I1.508J0.497
G1Y46.216
G2X51.772Y46.713I1.587J0.000
G2X52.271Y47.751I1.583J-0.121
G1X52.346Y47.826
G2X52.872Y48.198I1.159J-1.084
G1X53.022Y48.273
G2X53.806Y48.480I0.784J-1.380
G1X54.182
G2X54.795Y48.357I0.000J-1.588
G1X55.191Y48.198
G2X55.717Y47.826I-0.634J-1.455
G1X55.792Y47.751
X55.867Y47.676
G2X56.238Y47.150I-1.084J-1.159
G1X56.397Y46.754
X56.503Y46.374
G2X56.595Y45.873I-1.495J-0.533
G1X56.659Y45.584
X56.709Y45.512
X56.931Y45.335
X57.062Y45.251
G2X57.576Y44.977I-0.476J-1.515
G2X57.971Y44.670I-0.765J-1.391
G2X58.426Y43.899I-1.084J-1.159
G2X58.550Y43.285I-1.464J-0.613
G1Y43.210
G2X58.470Y42.713I-1.588J0.000
G2X58.267Y42.050I-1.583J0.121
G1X58.192Y41.900
X58.117Y41.750
X58.042Y41.599
X57.980Y41.474
X58.023Y41.139
G2X58.099Y40.655I-1.512J-0.484
G1Y39.904
G2X58.006Y39.370I-1.587J0.000
G2X57.816Y38.819I-1.570J0.233
G2X57.445Y38.293I-1.455J0.634
G1X57.370Y38.218
X57.295Y38.143
X57.220Y38.068
X57.145Y37.993
X57.070Y37.917
G2X56.706Y37.628I-1.159J1.084
G1X56.694Y37.617
X56.619Y37.542
X56.544Y37.467
X56.468Y37.391
X56.393Y37.316
G2X55.234Y36.813I-1.159J1.084
G1X55.096
X55.111Y36.780
X55.164Y36.678
G2X55.642Y36.329I-0.682J-1.434
G2X55.949Y35.934I-1.084J-1.159
G1X56.163Y35.578
X56.238Y35.427
X56.395Y35.040
X56.464Y34.901
X56.470Y34.890
X56.567Y34.803
X57.037
G2X57.810Y34.602I0.000J-1.588
G1X58.197Y34.445
G2X58.723Y34.074I-0.634J-1.455
G1X58.798Y33.999
X58.873Y33.924
X58.948Y33.849
X59.023Y33.774
G2X59.395Y33.248I-1.084J-1.159
G2X59.602Y32.464I-1.380J-0.784
G1Y31.938
G2X59.395Y31.154I-1.587J0.000
G2X59.023Y30.628I-1.455J0.634
G1X58.948Y30.553
X58.873Y30.478
G2X58.509Y30.188I-1.159J1.084
G1X58.497Y30.177
X58.422Y30.102
X58.347Y30.027
X58.272Y29.952
X58.197Y29.877
X58.122Y29.801
X58.046Y29.726
G2X57.682Y29.437I-1.159J1.084
G1X57.382Y29.211
X57.370Y29.200
X57.295Y29.125
X57.220Y29.050
X57.200Y29.029
G2X57.272Y28.556I-1.515J-0.473
G1Y27.204
G2X57.065Y26.419I-1.587J0.000
G2X56.694Y25.894I-1.455J0.634
G1X56.619Y25.819
X56.544Y25.743
G2X55.384Y25.240I-1.159J1.084
G1X55.115
G2X54.633Y25.165I-0.483J1.512
G1X54.439
G2X53.956Y25.090I-0.483J1.512
G1X53.355
G2X52.742Y25.213I0.000J1.588
G0Z5.080
G0X38.044Y0.000
G1Z-4.000F300.0
G1X39.017F1000.0
G2X38.071Y0.871I0.511J1.503
G1X38.109Y0.526
Y0.451
G2X38.044Y0.000I-1.588J0.000
G0Z5.080
G0X33.507
G1Z-4.000F300.0
G1Y0.225F1000.0
G2X33.714Y1.010I1.587J0.000
G2X34.085Y1.535I1.455J-0.634
G1X34.160Y1.610
G2X34.686Y1.982I1.159J-1.084
G1X34.705Y1.992
X35.061Y2.207
G2X35.846Y2.414I0.784J-1.380
G1X36.296
G2X37.456Y1.911I0.000J-1.588
G1X37.531Y1.836
G2X37.902Y1.310I-1.084J-1.159
G1X37.978Y1.158
X37.940Y1.503
Y1.728
G2X38.584Y3.005I1.588J0.000
G2X39.161Y3.717I1.470J-0.600
G2X39.432Y4.102I1.419J-0.711
G1X39.657Y4.403
G2X40.397Y5.063I1.374J-0.796
G1X40.547Y5.138
G2X41.331Y5.345I0.784J-1.380
G1X41.632
X41.771Y5.339
G2X42.459Y5.495I0.687J-1.431
G1X42.684
G2X43.844Y4.992I0.000J-1.588
G2X44.347Y3.833I-1.084J-1.159
G1Y3.607
G2X44.140Y2.823I-1.588J0.000
G2X43.768Y2.297I-1.455J0.634
G1X43.693Y2.222
X43.618Y2.147
G2X43.101Y1.780I-1.159J1.084
G2X42.642Y1.475I-1.093J1.151
G1X42.622Y1.464
X42.266Y1.250
X42.246Y1.239
G2X41.306Y0.893I-0.990J1.241
G1X41.173Y0.792
G2X40.264Y0.000I-1.419J0.711
G1X63.442
X63.496Y0.004
X63.500Y0.058
Y88.842
X63.496Y88.896
X63.442Y88.900
X0.058
X0.004Y88.896
X0.000Y88.842
Y0.058
X0.004Y0.004
X0.058Y0.000
X33.507
G0Z5.080
G0X32.680Y0.001
G1Z-5.000F300.0
G1X0.040F1000.0
X0.004Y0.004
X0.000Y0.058
Y2.224
X33.772
X33.848Y2.276
X33.859Y2.287
X33.995Y2.415
X34.145Y2.527
X34.257Y2.677
X34.385Y2.813
X34.461Y2.888
X34.618Y3.035
X34.795Y3.160
X34.986Y3.259
X35.170Y3.348
X35.365Y3.414
X35.567Y3.453
X35.770Y3.466
X36.296
X36.542Y3.447
X36.785Y3.389
X37.016Y3.294
X37.227Y3.165
X37.273Y3.166
X37.392
X37.498Y3.195
X37.692Y3.414
X37.767Y3.489
X37.842Y3.564
X37.851Y3.573
X37.922Y3.715
X37.997Y3.865
X38.096Y4.056
X38.221Y4.233
X38.368Y4.391
X38.424Y4.446
X0.000
Y6.669
X42.033
X42.159Y6.730
X42.354Y6.795
X42.556Y6.835
X42.759Y6.848
X43.210
X43.414Y6.835
X43.616Y6.795
X43.811Y6.730
X43.936Y6.669
G0Z5.080
G0X41.716Y0.001
G1Z-5.000F300.0
G1X63.460F1000.0
X63.496Y0.004
X63.500Y0.058
Y2.224
X44.817
X44.909Y2.415
X44.975Y2.618
X45.040Y2.806
X45.081Y3.001
X45.098Y3.199
X45.144Y3.378
X45.169Y3.561
X45.213Y3.723
X45.240Y3.890
X45.248Y4.058
Y4.446
X63.500
Y6.669
X43.936
G0Z5.080
G0X63.500Y8.891
G1Z-5.000F300.0
G1X0.000F1000.0
Y11.114
X63.500
Y13.336
X0.000
Y15.559
X63.500
Y17.781
X0.000
Y20.004
X63.500
Y22.226
X0.000
Y24.449
X33.046
X33.037Y24.466
X32.945Y24.658
X32.878Y24.862
X32.813Y25.049
X32.772Y25.242
X32.725Y25.402
X32.509Y25.443
X32.298Y25.515
X32.099Y25.617
X31.916Y25.744
X31.755Y25.894
X31.610Y26.049
X31.484Y26.227
X31.383Y26.421
X31.310Y26.628
X31.301Y26.671
X0.000
Y28.894
X31.914
X32.039Y29.001
X32.129Y29.150
X32.236Y29.289
X32.356Y29.415
X32.432Y29.490
X32.507Y29.565
X32.582Y29.641
X32.747Y29.794
X32.935Y29.924
X33.139Y30.025
X33.354Y30.096
X33.552Y30.164
X33.758Y30.205
X33.967Y30.219
X34.042
X34.251Y30.205
X34.457Y30.164
X34.655Y30.096
X34.849Y30.033
X35.035Y29.946
X35.208Y29.835
X35.364Y29.705
X35.527Y29.596
X35.677Y29.467
X35.810Y29.320
X35.922Y29.159
X36.097Y29.035
X36.249Y28.894
G0Z5.080
G0X37.150Y24.449
G1Z-5.000F300.0
G1X52.808F1000.0
X53.008Y24.418
X53.171Y24.374
X53.337Y24.347
X53.505Y24.339
X54.031
X54.356Y24.372
X54.545Y24.312
X54.743Y24.244
X54.950Y24.202
X55.159Y24.188
X55.384
X55.588Y24.201
X55.790Y24.241
X55.985Y24.306
X56.168Y24.395
X56.271Y24.449
X63.500
Y26.671
X57.643
X57.648Y26.720
X57.704Y26.959
X57.723Y27.204
Y28.149
X57.777Y28.371
X57.798Y28.599
X57.823Y28.685
X57.874Y28.785
X58.026Y28.894
X63.500
Y31.116
X60.262
X60.278Y31.304
X60.334Y31.543
X60.353Y31.788
Y31.863
X60.334Y32.107
X60.278Y32.345
Y32.389
X60.259Y32.633
X60.203Y32.871
Y32.915
X60.193Y33.096
X60.162Y33.275
X60.143Y33.339
X63.500
Y35.561
X59.215
X59.169Y35.653
X59.070Y35.844
X58.945Y36.021
X58.798Y36.178
X58.723Y36.254
X58.648Y36.329
X58.572Y36.404
X58.356Y36.597
X58.421Y36.791
X58.461Y36.993
X58.474Y37.198
Y37.392
X58.531Y37.630
X58.543Y37.784
X63.500
Y40.006
X58.625
Y40.279
X58.614Y40.460
X58.583Y40.639
X58.532Y40.813
X58.470Y41.077
X58.443Y41.270
X58.493Y41.374
X58.568Y41.524
X58.643Y41.674
X58.654Y41.694
X58.773Y41.865
X58.869Y42.050
X58.944Y42.201
X58.957Y42.229
X63.500
Y44.451
X59.016
X58.920Y44.636
X58.795Y44.813
X58.648Y44.971
X58.572Y45.046
X58.497Y45.121
X58.422Y45.196
X58.347Y45.271
X58.190Y45.418
X58.013Y45.543
X57.821Y45.642
X57.671Y45.718
X57.521Y45.793
X57.328Y45.886
X57.125Y45.952
X56.952Y46.013
X56.879Y46.299
X56.821Y46.549
X56.812Y46.674
X63.500
Y48.896
X55.133
X54.963Y48.953
X54.761Y48.993
X54.557Y49.006
X54.535
X54.439Y49.104
X54.364Y49.179
X54.289Y49.254
X54.214Y49.329
X54.139Y49.404
X53.981Y49.551
X53.804Y49.676
X53.613Y49.776
X53.463Y49.851
X53.279Y49.940
X53.084Y50.005
X52.882Y50.045
X52.679Y50.058
X52.153
X51.949Y50.045
X51.747Y50.005
X51.552Y49.940
X51.369Y49.851
X51.177Y49.752
X51.000Y49.627
X50.843Y49.480
X50.768Y49.404
X50.693Y49.329
X50.546Y49.172
X50.421Y48.995
X50.370Y48.896
G0Z5.080
G0X37.150Y24.449
G1Z-5.000F300.0
G1X37.150Y24.450F1000.0
X37.190Y24.641
X37.266Y24.942
X37.317Y25.115
X37.348Y25.294
X37.358Y25.475
Y25.519
X37.414Y25.757
X37.433Y26.001
Y26.452
X37.423Y26.633
X37.416Y26.671
X50.125
X49.975Y26.749
X49.798Y26.874
X49.641Y27.021
X49.565Y27.096
X49.557Y27.104
X49.368Y27.203
X49.195Y27.327
X49.039Y27.472
X48.964Y27.547
X48.889Y27.622
X48.814Y27.697
X48.739Y27.772
X48.592Y27.930
X48.467Y28.107
X48.368Y28.298
X48.275Y28.491
X48.209Y28.694
X48.141Y28.892
X48.140Y28.894
X36.249
G0Z5.080
G0X48.491Y31.116
G1Z-5.000F300.0
G1X0.000F1000.0
Y33.339
X48.064
X47.992Y33.483
X47.901Y33.672
X47.835Y33.871
X47.770Y34.001
X47.640Y34.157
X47.530Y34.329
X47.409Y34.503
X47.312Y34.694
X47.240Y34.898
X47.198Y35.108
X47.184Y35.320
Y35.561
X0.000
Y37.784
X47.571
X47.586Y37.832
X47.658Y37.995
X47.689Y38.138
X47.648Y38.342
X47.634Y38.551
Y38.598
X47.466Y38.894
X47.380Y39.069
X47.316Y39.254
X47.276Y39.445
X47.210Y39.687
X46.967Y39.669
X46.742
X46.529Y39.683
X46.317Y39.727
X46.110Y39.800
X45.915Y39.901
X45.767Y40.006
X0.000
Y42.229
X45.096
G0Z5.080
G0X51.722Y44.451
G1Z-5.000F300.0
G1X36.505F1000.0
X36.445Y44.409
X36.254Y44.310
X36.070Y44.220
X35.875Y44.155
X35.673Y44.116
X35.470Y44.102
X35.019
X34.815Y44.116
X34.613Y44.155
X34.418Y44.220
X34.235Y44.310
X34.051Y44.404
X33.983Y44.451
X0.000
Y46.674
X27.799
X27.743Y46.794
X27.571Y46.854
X27.408Y46.933
X27.191Y47.006
X26.988Y47.072
X26.795Y47.165
X26.499Y47.334
X25.400
X25.169Y47.351
X24.942Y47.401
X24.726Y47.484
X24.649
X24.450Y47.497
X24.254Y47.534
X24.064Y47.595
X24.004Y47.536
X23.847Y47.389
X23.670Y47.264
X23.479Y47.165
X23.295Y47.076
X23.100Y47.011
X22.898Y46.971
X22.695Y46.958
X22.244
X22.035Y46.972
X21.829Y47.013
X21.630Y47.081
X21.416Y47.152
X21.212Y47.253
X21.024Y47.383
X20.859Y47.536
X20.784Y47.612
X20.709Y47.687
X20.562Y47.844
X20.437Y48.021
X20.337Y48.212
X20.278Y48.329
X20.072Y48.374
X19.872Y48.447
X19.683Y48.547
X19.509Y48.670
X19.356Y48.814
X19.281Y48.889
X19.274Y48.896
X0.000
Y51.119
X17.396
X17.343Y51.198
X17.260Y51.360
X17.252Y51.369
X17.177Y51.444
X17.030Y51.602
X16.905Y51.778
X16.805Y51.970
X16.730Y52.120
X16.655Y52.270
X16.584Y52.412
X16.575Y52.421
X16.500Y52.496
X16.425Y52.571
X16.267Y52.743
X16.136Y52.935
X16.016Y53.077
X15.912Y53.232
X15.857Y53.341
X0.000
Y55.564
X15.697
Y55.910
X15.698Y55.985
X15.697Y56.060
Y56.511
X15.710Y56.720
X15.752Y56.926
X15.820Y57.125
X15.886Y57.328
X15.979Y57.521
X16.078Y57.712
X16.130Y57.786
X0.000
Y60.009
X17.857
X17.842Y60.059
X17.811Y60.238
X17.801Y60.419
Y60.913
X17.747Y61.135
X17.726Y61.363
X17.669Y61.602
X17.650Y61.847
Y61.997
X17.661Y62.178
X17.670Y62.231
X0.000
Y64.454
X9.692
X9.592Y64.525
X9.436Y64.670
X9.361Y64.745
X9.286Y64.820
X9.211Y64.896
X9.095Y65.016
X8.992Y65.148
X8.904Y65.290
X8.754Y65.516
X8.635Y65.687
X8.539Y65.872
X8.450Y66.056
X8.385Y66.251
X8.345Y66.453
X8.332Y66.656
Y66.676
X0.000
Y68.899
X8.869
X8.910Y68.943
X8.985Y69.018
X9.143Y69.165
X9.320Y69.290
X9.511Y69.389
X9.661Y69.464
X9.845Y69.554
X10.040Y69.619
X10.242Y69.658
X10.446Y69.672
X10.972
X11.175Y69.658
X11.377Y69.619
X11.572Y69.554
X11.756Y69.464
X11.906Y69.389
X12.097Y69.290
X12.274Y69.165
X12.432Y69.018
X12.507Y68.943
X12.549Y68.899
G0Z5.080
G0X18.701Y64.454
G1Z-5.000F300.0
G1X12.101F1000.0
X12.187Y64.514
X12.329Y64.602
X12.462Y64.704
X12.582Y64.820
X12.657Y64.896
X12.804Y65.053
X12.929Y65.230
X13.028Y65.421
X13.121Y65.614
X13.187Y65.817
X13.255Y66.016
X13.297Y66.222
X13.311Y66.431
Y66.676
X22.807
X22.758Y66.695
X22.544Y66.765
X22.341Y66.866
X22.155Y66.993
X22.013Y67.082
X21.881Y67.184
X21.761Y67.300
X21.685Y67.375
X21.610Y67.451
X21.535Y67.526
X21.460Y67.601
X21.385Y67.676
X21.231Y67.841
X21.102Y68.029
X21.000Y68.233
X20.930Y68.448
X20.873Y68.607
X20.833Y68.772
X20.817Y68.899
X12.549
G0Z5.080
G0X2.776Y71.121
G1Z-5.000F300.0
G1X21.087F1000.0
X21.112Y71.211
X21.114Y71.240
X21.107Y71.391
Y71.691
X21.117Y71.872
X21.148Y72.051
X21.199Y72.225
X21.240Y72.415
X21.304Y72.601
X21.389Y72.776
X21.489Y72.967
X21.614Y73.144
X21.761Y73.301
X21.803Y73.344
X3.837
G0Z5.080
G0X28.608Y68.899
G1Z-5.000F300.0
G1X29.088F1000.0
X29.180Y68.977
X29.335Y69.080
X29.501Y69.164
X29.651Y69.239
X29.834Y69.328
X30.029Y69.393
X30.231Y69.433
X30.435Y69.446
X30.736
X30.944Y69.432
X31.151Y69.391
X31.349Y69.323
X31.552Y69.257
X31.745Y69.164
X31.936Y69.065
X32.113Y68.940
X32.157Y68.899
G0Z5.080
G0X51.722Y44.451
G1Z-5.000F300.0
G1X51.665Y44.626F1000.0
X51.593Y44.842
X51.524Y44.981
X51.452Y45.123
X51.444Y45.132
X51.369Y45.207
X51.294Y45.282
X51.219Y45.357
X51.143Y45.432
X51.068Y45.507
X50.993Y45.583
X50.918Y45.658
X50.802Y45.778
X50.699Y45.910
X50.611Y46.053
X50.492Y46.224
X50.397Y46.409
X50.321Y46.559
X50.266Y46.674
X38.891
X38.923Y46.839
X38.936Y47.043
Y47.462
X38.992Y47.700
X39.011Y47.944
Y48.106
X39.105Y48.287
X39.198Y48.480
X39.264Y48.684
X39.332Y48.882
X39.335Y48.896
X50.370
G0Z5.080
G0X38.822Y51.119
G1Z-5.000F300.0
G1X63.500F1000.0
Y53.341
X31.562
X31.523Y53.442
X31.492Y53.551
X31.451Y53.806
X31.485Y53.992
X31.496Y54.182
Y55.234
X31.492Y55.346
X31.496Y55.459
Y55.503
X31.511Y55.564
X63.500
Y57.786
X32.248
Y57.864
X32.236Y58.061
X32.199Y58.256
X32.138Y58.445
X32.054Y58.623
X32.087Y58.806
X32.098Y58.991
Y59.367
X32.088Y59.545
X32.057Y59.721
X32.008Y59.893
X32.037Y60.009
X63.500
Y62.231
X33.210
X33.245Y62.333
X33.286Y62.540
X33.300Y62.749
Y63.124
X33.286Y63.333
X33.245Y63.539
X33.177Y63.738
X33.102Y63.963
X33.026Y64.188
X32.960Y64.392
X32.930Y64.454
X63.500
Y66.676
X33.066
X33.074Y66.807
Y67.257
X33.061Y67.461
X33.022Y67.663
X32.956Y67.858
X32.867Y68.042
X32.768Y68.233
X32.643Y68.410
X32.496Y68.567
X32.421Y68.642
X32.346Y68.717
X32.271Y68.793
X32.157Y68.899
X63.500
Y71.121
G0Z5.080
G0X32.157Y68.899
G1Z-5.000F300.0
G1X63.500F1000.0
Y71.121
X34.568
X34.601Y71.137
X34.751Y71.213
X34.942Y71.312
X35.119Y71.437
X35.277Y71.584
X35.352Y71.659
X35.497Y71.815
X35.623Y71.992
X35.724Y72.186
X35.797Y72.393
X35.841Y72.606
X35.855Y72.818
Y73.194
X35.845Y73.344
G0Z5.080
G0X63.500Y71.121
G1Z-5.000F300.0
G1X34.568F1000.0
X34.450Y71.062
X34.267Y70.973
X34.072Y70.908
X33.870Y70.868
X33.666Y70.855
X33.215
X33.004Y70.869
X32.794Y70.912
X32.590Y70.983
X32.399Y71.081
X32.341Y71.121
X29.961
X30.012Y71.272
X30.051Y71.458
X30.102Y71.632
X30.133Y71.811
X30.144Y71.992
Y72.668
X30.130Y72.877
X30.088Y73.083
X30.020Y73.281
X30.000Y73.344
X31.177
G0Z5.080
G0X3.837
G1Z-5.000F300.0
G1X3.828Y73.482F1000.0
X3.784Y73.695
X3.711Y73.901
X3.610Y74.096
X3.484Y74.273
X3.339Y74.429
X3.264Y74.504
X3.106Y74.651
X2.929Y74.776
X2.738Y74.875
X2.554Y74.964
X2.359Y75.030
X2.157Y75.069
X1.954Y75.082
X1.578
X1.369Y75.068
X1.163Y75.027
X0.965Y74.959
X0.750Y74.888
X0.546Y74.787
X0.359Y74.657
X0.193Y74.504
X0.169Y74.481
X0.000
Y75.566
X30.316
G0Z5.080
G0X0.000Y77.789
G1Z-5.000F300.0
G1X33.165F1000.0
X33.292Y77.699
X33.483Y77.600
X33.667Y77.511
X33.862Y77.446
X34.064Y77.406
X34.267Y77.393
X34.793
X34.997Y77.406
X35.199Y77.446
X35.394Y77.511
X35.578Y77.600
X35.769Y77.699
X35.895Y77.789
G0Z5.080
G0X28.196Y80.011
G1Z-5.000F300.0
G1X23.150F1000.0
X23.070Y79.955
X22.876Y79.854
X22.669Y79.781
X22.456Y79.737
X22.244Y79.723
X22.169
X21.956Y79.737
X21.743Y79.781
X21.537Y79.854
X21.342Y79.955
X21.262Y80.011
X0.000
Y82.234
X20.442
X20.445Y82.274
X20.489Y82.487
X20.562Y82.694
X20.663Y82.888
X20.788Y83.065
X20.934Y83.221
X21.090Y83.367
X21.267Y83.492
X21.462Y83.593
X21.668Y83.666
X21.881Y83.710
X22.093Y83.724
X22.169
X22.381Y83.710
X22.594Y83.666
X22.801Y83.593
X22.995Y83.492
X23.172Y83.367
X23.328Y83.221
X23.475Y83.063
X23.600Y82.887
X23.699Y82.695
X23.774Y82.545
X23.864Y82.362
X23.906Y82.234
X28.271
G0Z5.080
G0X35.845Y73.344
G1Z-5.000F300.0
G1X63.500F1000.0
Y75.566
X34.349
X34.338Y75.733
X34.297Y75.939
X34.229Y76.137
X34.160Y76.347
X34.058Y76.554
X33.923Y76.748
X33.758Y76.923
X33.567Y77.072
X33.357Y77.190
X33.135Y77.273
X32.910Y77.321
X32.689Y77.337
X32.389
X32.185Y77.324
X31.983Y77.284
X31.788Y77.219
X31.605Y77.129
X31.413Y77.030
X31.237Y76.905
X31.079Y76.758
X31.004Y76.683
X30.929Y76.608
X30.854Y76.533
X30.706Y76.375
X30.582Y76.198
X30.482Y76.007
X30.393Y75.824
X30.328Y75.629
X30.316Y75.566
G0Z5.080
G0X35.895Y77.789
G1Z-5.000F300.0
G1X63.500F1000.0
Y80.011
X37.558
X37.608Y80.162
X37.695Y80.343
X37.758Y80.535
X37.796Y80.734
X37.809Y80.934
Y81.385
X37.790Y81.629
X37.734Y81.868
Y82.212
X37.732Y82.234
X63.500
Y84.456
X12.413
X12.429Y84.502
X12.470Y84.708
X12.484Y84.917
Y85.293
X12.471Y85.497
X12.431Y85.698
X12.366Y85.893
X12.277Y86.077
X12.167Y86.285
X12.026Y86.478
X11.856Y86.648
X11.815Y86.678
X63.500
Y88.842
X63.496Y88.896
X63.460Y88.899
X10.073
G0Z5.080
G0X8.516Y84.456
G1Z-5.000F300.0
G1X0.000F1000.0
Y86.678
X6.494
X6.466Y86.818
X6.453Y87.021
Y87.096
X6.472Y87.341
X6.528Y87.579
Y87.923
X6.542Y88.127
X6.581Y88.329
X6.646Y88.524
X6.736Y88.707
X6.835Y88.899
X0.040
G0Z5.080
G0X32.680Y0.000
G1Z-5.000F300.0
G1Y0.301F1000.0
G2X32.803Y0.914I1.587J0.000
G2X33.102Y1.516I1.539J-0.388
G2X33.409Y1.911I1.391J-0.765
G1X33.484Y1.986
G2X33.848Y2.276I1.159J-1.084
G1X33.859Y2.287
X34.145Y2.527
X34.385Y2.813
X34.461Y2.888
G2X34.986Y3.259I1.159J-1.084
G2X35.770Y3.466I0.784J-1.380
G1X36.296
G2X37.227Y3.165I0.000J-1.588
G1X37.273Y3.166
X37.392
X37.498Y3.195
X37.692Y3.414
X37.767Y3.489
X37.842Y3.564
X37.851Y3.573
X37.922Y3.715
X37.997Y3.865
G2X38.368Y4.391I1.455J-0.634
G1X38.443Y4.466
G2X38.969Y4.837I1.159J-1.084
G1X39.344Y4.991
X39.420Y5.067
X39.496Y5.142
G2X39.890Y5.449I1.159J-1.084
G1X40.247Y5.664
X40.397Y5.739
X40.793Y5.898
X41.010Y5.971
X41.140Y6.036
X41.149Y6.044
X41.224Y6.119
G2X41.619Y6.426I1.159J-1.084
G1X41.975Y6.641
G2X42.759Y6.848I0.784J-1.380
G1X43.210
G2X43.994Y6.641I0.000J-1.588
G2X44.520Y6.270I-0.634J-1.455
G1X44.595Y6.194
X44.670Y6.119
G2X45.041Y5.594I-1.084J-1.159
G2X45.248Y4.809I-1.380J-0.784
G1Y4.058
G2X45.169Y3.561I-1.588J0.000
G1X45.098Y3.199
G2X44.975Y2.618I-1.587J0.033
G1X44.816Y2.222
X44.741Y2.072
G2X44.370Y1.546I-1.455J0.634
G1X44.294Y1.471
X44.219Y1.396
X44.144Y1.320
G2X43.618Y0.949I-1.159J1.084
G2X43.067Y0.759I-0.784J1.380
G1X42.655Y0.672
X42.555Y0.642
X42.416Y0.574
G2X41.984Y0.406I-0.784J1.380
G1X41.934Y0.374
X41.821Y0.212
X41.810Y0.193
X41.735Y0.043
X41.716Y0.000
X63.442
X63.496Y0.004
X63.500Y0.058
Y88.842
X63.496Y88.896
X63.442Y88.900
X10.072
X10.173Y88.707
G2X10.380Y87.923I-1.380J-0.784
G1Y87.106
X10.671
G2X11.455Y86.899I0.000J-1.587
G2X12.277Y86.077I-0.634J-1.455
G2X12.484Y85.293I-1.380J-0.784
G1Y84.917
G2X12.361Y84.304I-1.588J0.000
G2X11.906Y83.532I-1.539J0.388
G1X11.830Y83.457
X11.755Y83.382
X11.680Y83.307
G2X10.521Y82.804I-1.159J1.084
G1X10.370
G2X9.211Y83.307I0.000J1.587
G1X9.136Y83.382
X9.061Y83.457
G2X8.689Y83.983I1.084J1.159
G2X8.482Y84.767I1.380J0.784
G1Y85.133
X8.266
G2X7.107Y85.636I0.000J1.588
G1X7.032Y85.712
G2X6.660Y86.237I1.084J1.159
G2X6.453Y87.021I1.380J0.784
G1Y87.096
G2X6.528Y87.579I1.588J0.000
G1Y87.923
G2X6.736Y88.707I1.588J0.000
G1X6.836Y88.900
X0.058
X0.004Y88.896
X0.000Y88.842
Y74.481
X0.169
X0.193Y74.504
G2X0.965Y74.959I1.159J-1.084
G2X1.578Y75.082I0.613J-1.464
G1X1.954
G2X2.738Y74.875I0.000J-1.587
G2X3.264Y74.504I-0.634J-1.455
G1X3.339Y74.429
G2X3.842Y73.269I-1.084J-1.159
G1Y72.743
G2X3.339Y71.584I-1.588J0.000
G1X3.264Y71.509
X3.188Y71.433
G2X2.029Y70.930I-1.159J1.084
G1X1.800
X1.535Y70.607
X1.460Y70.532
X1.385Y70.456
G2X0.225Y69.953I-1.159J1.084
G1X0.000
Y0.058
X0.004Y0.004
X0.058Y0.000
X32.680
G0Z5.080
G0X53.008Y24.418
G1Z-5.000F300.0
G2X52.139Y24.760I0.121J1.583F1000.0
G2X51.530Y25.356I0.765J1.391
G1X51.519Y25.368
X51.444Y25.443
G2X51.073Y25.969I1.084J1.159
G1X50.998Y26.119
X50.923Y26.269
X50.887Y26.335
G2X50.467Y26.500I0.363J1.545
G1X50.316Y26.575
X50.166Y26.650
G2X49.641Y27.021I0.634J1.455
G1X49.565Y27.096
X49.557Y27.104
G2X49.039Y27.472I0.642J1.452
G1X48.964Y27.547
X48.889Y27.622
X48.814Y27.697
X48.739Y27.772
G2X48.368Y28.298I1.084J1.159
G1X48.209Y28.694
G2X48.085Y29.308I1.464J0.613
G1Y29.683
G2X48.286Y30.456I1.588J0.000
G2X48.486Y30.915I1.537J-0.397
G1X48.517Y30.992
X48.478Y31.179
X48.391Y31.591
X48.315Y31.967
X48.284Y32.076
G2X48.160Y32.689I1.464J0.613
G1Y32.808
G2X48.085Y33.291I1.512J0.483
G1Y33.293
X48.067Y33.333
X47.992Y33.483
X47.835Y33.871
X47.770Y34.001
X47.530Y34.329
G2X47.184Y35.320I1.241J0.990
G1Y36.071
G2X47.259Y36.555I1.588J0.000
G2X47.351Y37.055I1.587J-0.033
G1X47.457Y37.436
X47.532Y37.661
X47.658Y37.995
X47.689Y38.138
X47.634Y38.551
Y38.598
X47.466Y38.894
G2X47.276Y39.445I1.380J0.784
G1X47.210Y39.687
X46.967Y39.669
X46.742
G2X45.583Y40.172I0.000J1.588
G1X45.507Y40.247
G2X45.004Y41.407I1.084J1.159
G1Y41.707
G2X45.507Y42.867I1.588J0.000
G1X45.583Y42.942
G2X46.742Y43.445I1.159J-1.084
G1X46.967
G2X47.752Y43.238I0.000J-1.587
G2X48.614Y42.313I-0.634J-1.455
G1X48.663Y42.336
G2X49.447Y42.543I0.784J-1.380
G1X49.898
G2X50.714Y42.318I0.000J-1.588
G1X51.037
X51.087Y42.347
G2X51.674Y42.641I0.990J-1.241
G1X51.674Y42.642
X51.743Y42.780
X51.900Y43.168
X51.975Y43.318
X52.050Y43.468
X52.089Y43.552
X52.085Y43.578
X52.012Y43.867
X51.900Y44.079
X51.824Y44.230
X51.665Y44.626
X51.593Y44.842
X51.524Y44.981
X51.452Y45.123
X51.444Y45.132
X51.369Y45.207
X51.294Y45.282
X51.219Y45.357
X51.143Y45.432
X51.068Y45.507
X50.993Y45.583
X50.918Y45.658
G2X50.611Y46.053I1.084J1.159
G1X50.397Y46.409
X50.321Y46.559
G2X50.114Y47.343I1.380J0.784
G1Y48.020
G2X50.321Y48.804I1.587J0.000
G2X50.693Y49.329I1.455J-0.634
G1X50.768Y49.404
X50.843Y49.480
G2X51.369Y49.851I1.159J-1.084
G2X52.153Y50.058I0.784J-1.380
G1X52.679
G2X53.463Y49.851I0.000J-1.588
G1X53.613Y49.776
G2X54.139Y49.404I-0.634J-1.455
G1X54.214Y49.329
X54.289Y49.254
X54.364Y49.179
X54.439Y49.104
X54.535Y49.006
X54.557
G2X55.342Y48.799I0.000J-1.588
G1X55.492Y48.724
G2X56.017Y48.352I-0.634J-1.455
G1X56.093Y48.277
G2X56.464Y47.752I-1.084J-1.159
G1X56.539Y47.601
G2X56.729Y47.050I-1.380J-0.784
G2X56.821Y46.549I-1.495J-0.533
G1X56.879Y46.299
X56.952Y46.013
X57.125Y45.952
X57.521Y45.793
X57.671Y45.718
X57.821Y45.642
G2X58.347Y45.271I-0.634J-1.455
G1X58.422Y45.196
X58.497Y45.121
X58.572Y45.046
X58.648Y44.971
G2X59.019Y44.445I-1.084J-1.159
G2X59.226Y43.661I-1.380J-0.784
G1Y43.210
G2X59.103Y42.597I-1.587J0.000
G1X58.944Y42.201
X58.869Y42.050
X58.654Y41.694
X58.643Y41.674
X58.568Y41.524
X58.493Y41.374
X58.443Y41.270
X58.470Y41.077
X58.532Y40.813
G2X58.625Y40.279I-1.495J-0.533
G1Y39.453
G2X58.550Y38.970I-1.588J0.000
G1Y37.875
G2X58.474Y37.392I-1.588J0.000
G1Y37.198
G2X58.356Y36.597I-1.587J0.000
G1X58.572Y36.404
X58.648Y36.329
X58.723Y36.254
X58.798Y36.178
G2X59.169Y35.653I-1.084J-1.159
G1X59.244Y35.502
X59.319Y35.352
X59.478Y34.956
X59.551Y34.740
X59.620Y34.601
X59.631Y34.581
X59.845Y34.225
X60.004Y33.829
X60.111Y33.448
G2X60.203Y32.915I-1.495J-0.533
G1Y32.871
G2X60.278Y32.389I-1.512J-0.483
G1Y32.345
G2X60.353Y31.863I-1.512J-0.483
G1Y31.788
G2X60.278Y31.304I-1.587J0.000
G2X60.071Y30.553I-1.587J0.033
G2X59.700Y30.027I-1.455J0.634
G1X59.625Y29.952
X59.549Y29.877
G2X58.787Y29.424I-1.159J1.084
G1X58.648Y29.355
X58.506Y29.284
X58.209Y29.061
X58.197Y29.050
X57.874Y28.785
X57.823Y28.685
X57.798Y28.599
G2X57.723Y28.149I-1.587J0.033
G1Y27.204
G2X57.648Y26.720I-1.588J0.000
G2X57.568Y26.256I-1.587J0.033
G2X57.366Y25.593I-1.583J0.121
G2X56.994Y25.067I-1.455J0.634
G1X56.919Y24.992
X56.844Y24.917
X56.769Y24.842
X56.694Y24.767
G2X56.168Y24.395I-1.159J1.084
G2X55.384Y24.188I-0.784J1.380
G1X55.159
G2X54.545Y24.312I0.000J1.588
G1X54.356Y24.372
X54.031Y24.339
X53.505
G2X53.008Y24.418I0.000J1.588
G0Z5.080
G0X31.534Y28.363
G1Z-5.000F300.0
G2X32.039Y29.001I1.455J-0.634F1000.0
G2X32.356Y29.415I1.402J-0.745
G1X32.432Y29.490
X32.507Y29.565
X32.582Y29.641
G2X33.354Y30.096I1.159J-1.084
G2X33.967Y30.219I0.613J-1.464
G1X34.042
G2X34.655Y30.096I0.000J-1.588
G2X35.364Y29.705I-0.388J-1.539
G2X35.922Y29.159I-0.796J-1.374
G1X36.254Y28.889
X36.329Y28.814
G2X36.636Y28.419I-1.084J-1.159
G1X36.850Y28.063
X36.925Y27.913
X37.000Y27.762
X37.011Y27.743
G2X37.341Y26.986I-1.241J-0.990
G2X37.433Y26.452I-1.495J-0.533
G1Y26.001
G2X37.358Y25.519I-1.588J0.000
G1Y25.475
G2X37.266Y24.942I-1.588J0.000
G1X37.190Y24.641
G2X37.000Y24.090I-1.570J0.233
G2X36.629Y23.564I-1.455J0.634
G1X36.554Y23.489
G2X35.395Y22.986I-1.159J1.084
G1X35.019
G2X33.923Y23.425I0.000J1.588
G2X33.559Y23.714I0.796J1.374
G1X33.484Y23.790
G2X33.113Y24.315I1.084J1.159
G1X33.037Y24.466
X32.878Y24.862
X32.772Y25.242
X32.725Y25.402
G2X31.755Y25.894I0.190J1.576
G2X31.252Y27.053I1.084J1.159
G1Y27.279
G2X31.344Y27.812I1.587J0.000
G2X31.534Y28.363I1.570J-0.233
G0Z5.080
G0X20.041Y57.652
G1Z-5.000F300.0
G1X20.048Y57.645F1000.0
X20.058Y57.646
X20.041Y57.652
G0Z5.080
G0X15.820Y57.125
G1Z-5.000F300.0
G1X15.979Y57.521F1000.0
G2X16.350Y58.046I1.455J-0.634
G1X16.425Y58.122
G2X16.951Y58.493I1.159J-1.084
G2X17.735Y58.700I0.784J-1.380
G1X18.111
G2X18.660Y58.602I0.000J-1.587
G1X18.604Y58.658
X18.529Y58.733
X18.454Y58.809
G2X18.083Y59.334I1.084J1.159
G2X17.893Y59.885I1.380J0.784
G2X17.801Y60.419I1.495J0.533
G1Y60.913
G2X17.726Y61.363I1.512J0.483
G2X17.650Y61.847I1.512J0.484
G1Y61.997
G2X17.743Y62.531I1.588J0.000
G1X17.818Y62.831
G2X18.008Y63.382I1.570J-0.233
G1X18.083Y63.533
X18.298Y63.889
X18.448Y64.114
G2X18.755Y64.509I1.391J-0.765
G1X18.830Y64.584
X18.905Y64.659
G2X19.431Y65.031I1.159J-1.084
G2X20.215Y65.238I0.784J-1.380
G1X20.666
G2X21.450Y65.031I0.000J-1.587
G2X21.956Y64.680I-0.634J-1.455
G1X22.298Y64.812
X22.683Y64.964
X22.903Y65.038
X23.132Y65.192
X23.358Y65.342
X23.459Y65.416
X23.529Y65.687
X23.593Y65.954
X23.339Y66.173
X23.264Y66.248
X23.188Y66.323
X23.113Y66.399
X23.038Y66.474
X22.963Y66.549
X22.858Y66.657
X22.758Y66.695
G2X22.155Y66.993I0.388J1.539
G2X21.761Y67.300I0.765J1.391
G1X21.685Y67.375
X21.610Y67.451
X21.535Y67.526
X21.460Y67.601
X21.385Y67.676
G2X20.930Y68.448I1.084J1.159
G2X20.811Y68.940I1.464J0.613
G2X20.731Y69.437I1.508J0.497
G1Y69.512
G2X20.811Y70.009I1.588J0.000
G2X21.014Y70.672I1.583J-0.121
G1X21.032Y70.712
Y70.714
G2X21.112Y71.211I1.588J0.000
G1X21.114Y71.240
X21.107Y71.391
Y71.691
G2X21.199Y72.225I1.588J0.000
G2X21.389Y72.776I1.570J-0.233
G2X21.761Y73.301I1.455J-0.634
G1X21.836Y73.377
X21.911Y73.452
X21.986Y73.527
G2X22.512Y73.898I1.159J-1.084
G2X23.296Y74.105I0.784J-1.380
G1X23.897
G2X25.057Y73.602I0.000J-1.588
G1X25.132Y73.527
X25.162Y73.497
X25.217Y73.522
X25.367Y73.597
X25.518Y73.673
X25.746Y73.779
X25.845Y73.838
X25.974Y74.128
G2X26.345Y74.654I1.455J-0.634
G1X26.420Y74.729
G2X27.579Y75.232I1.159J-1.084
G1X27.880
G2X28.664Y75.025I0.000J-1.587
G2X29.190Y74.654I-0.634J-1.455
G2X29.497Y74.259I-1.084J-1.159
G1X29.647Y74.034
X29.861Y73.678
X30.020Y73.281
G2X30.144Y72.668I-1.464J-0.613
G1Y71.992
G2X30.051Y71.458I-1.587J0.000
G2X29.868Y70.918I-1.570J0.233
G2X29.572Y70.325I-1.537J0.397
G1X29.561Y70.306
G2X29.254Y69.844I-1.455J0.634
G1X29.121Y69.649
X29.110Y69.630
X28.895Y69.273
G2X28.588Y68.878I-1.391J0.765
G1X28.513Y68.803
G2X28.118Y68.496I-1.159J1.084
G1X28.013Y68.419
X28.043Y68.329
X28.064Y68.315
X28.114Y68.317
X28.298Y68.412
X28.527Y68.519
X28.741Y68.634
X29.038Y68.857
G2X29.501Y69.164I1.096J-1.148
G1X29.651Y69.239
G2X30.435Y69.446I0.784J-1.380
G1X30.736
G2X31.349Y69.323I0.000J-1.587
G1X31.745Y69.164
G2X32.271Y68.793I-0.634J-1.455
G1X32.346Y68.717
X32.421Y68.642
X32.496Y68.567
G2X32.867Y68.042I-1.084J-1.159
G2X33.074Y67.257I-1.380J-0.784
G1Y66.807
G2X32.951Y66.193I-1.588J0.000
G1X32.924Y66.097
G2X32.832Y65.597I-1.587J0.033
G1X32.774Y65.347
Y64.766
X32.867Y64.585
X33.026Y64.188
X33.102Y63.963
X33.177Y63.738
G2X33.300Y63.124I-1.464J-0.613
G1Y62.749
G2X33.177Y62.135I-1.588J0.000
G1X33.024Y61.750
X32.867Y61.363
G2X32.496Y60.838I-1.455J0.634
G1X32.421Y60.762
X32.346Y60.687
X32.271Y60.612
X32.269Y60.611
G2X32.078Y60.174I-1.534J0.410
G1X32.008Y59.893
G2X32.098Y59.367I-1.498J-0.526
G1Y58.991
X32.054Y58.623
G2X32.248Y57.864I-1.394J-0.760
G1Y57.488
G2X32.041Y56.704I-1.588J0.000
G1X31.826Y56.348
X31.638Y56.076
X31.629Y56.053
X31.554Y55.752
X31.496Y55.503
Y55.459
X31.492Y55.346
X31.496Y55.234
Y54.182
X31.451Y53.806
X31.492Y53.551
X31.523Y53.442
X31.562Y53.339
X31.751Y53.068
X31.834Y52.954
X32.163Y52.989
X33.291
G2X33.904Y52.865I0.000J-1.587
G1X34.300Y52.706
G2X34.826Y52.335I-0.634J-1.455
G1X34.901Y52.260
X35.171Y51.929
X35.434Y51.728
X35.457Y51.740
G2X36.059Y52.039I0.990J-1.241
G2X36.672Y52.162I0.613J-1.464
G1X36.898
G2X37.511Y52.039I0.000J-1.588
G1X37.907Y51.880
G2X38.433Y51.509I-0.634J-1.455
G1X38.508Y51.433
X38.583Y51.358
X38.658Y51.283
X38.733Y51.208
X38.809Y51.133
G2X39.264Y50.361I-1.084J-1.159
G2X39.387Y49.748I-1.464J-0.613
G1Y49.297
G2X39.264Y48.684I-1.588J0.000
G1X39.105Y48.287
X39.011Y48.106
Y47.944
G2X38.936Y47.462I-1.588J0.000
G1Y47.043
G2X38.729Y46.258I-1.588J0.000
G2X38.358Y45.733I-1.455J0.634
G2X37.832Y45.362I-1.159J1.084
G2X37.281Y45.172I-0.784J1.380
G1X37.218Y45.151
X37.005Y44.906
X36.930Y44.831
X36.855Y44.756
X36.780Y44.681
G2X36.254Y44.310I-1.159J1.084
G2X35.470Y44.102I-0.784J1.380
G1X35.019
G2X34.235Y44.310I0.000J1.588
G2X33.477Y45.000I0.634J1.455
G1X33.327Y45.226
X33.113Y45.582
X33.037Y45.732
X33.027Y45.752
X32.923Y45.899
X32.777Y45.862
X32.722Y45.808
X32.646Y45.733
X32.571Y45.658
X32.496Y45.583
X32.421Y45.507
G2X31.895Y45.136I-1.159J1.084
G1X31.745Y45.061
G2X30.961Y44.854I-0.784J1.380
G1X30.360
G2X29.746Y44.977I0.000J1.588
G2X29.278Y45.180I0.388J1.539
G1X29.220Y45.203
G2X28.449Y45.658I0.388J1.539
G1X28.374Y45.733
G2X28.002Y46.258I1.084J1.159
G1X27.927Y46.409
X27.852Y46.559
X27.743Y46.794
X27.408Y46.933
X27.191Y47.006
X26.795Y47.165
X26.499Y47.334
X25.400
G2X24.726Y47.484I0.000J1.588
G1X24.649
G2X24.064Y47.595I0.000J1.588
G1X24.004Y47.536
G2X23.479Y47.165I-1.159J1.084
G2X22.695Y46.958I-0.784J1.380
G1X22.244
G2X21.630Y47.081I0.000J1.588
G2X20.859Y47.536I0.388J1.539
G1X20.784Y47.612
X20.709Y47.687
G2X20.337Y48.212I1.084J1.159
G1X20.278Y48.329
G2X19.356Y48.814I0.238J1.570
G1X19.281Y48.889
X19.206Y48.964
X19.130Y49.039
G2X18.824Y49.434I1.084J1.159
G1X18.609Y49.790
X18.588Y49.829
X18.548Y49.860
G2X18.154Y50.167I0.765J1.391
G1X18.078Y50.242
X18.003Y50.317
G2X17.696Y50.712I1.084J1.159
G1X17.563Y50.906
G2X17.260Y51.360I1.148J1.096
G1X17.252Y51.369
X17.177Y51.444
G2X16.805Y51.970I1.084J1.159
G1X16.730Y52.120
X16.655Y52.270
X16.584Y52.412
X16.575Y52.421
X16.500Y52.496
X16.425Y52.571
G2X16.136Y52.935I1.084J1.159
G2X15.829Y53.398I1.148J1.096
G2X15.621Y54.182I1.380J0.784
G1Y54.708
G2X15.697Y55.190I1.588J0.000
G1Y55.910
X15.698Y55.985
X15.697Y56.060
Y56.511
G2X15.820Y57.125I1.588J0.000
G0Z5.080
G0X8.332Y67.633
G1Z-5.000F300.0
G2X8.539Y68.417I1.588J0.000F1000.0
G2X8.910Y68.943I1.455J-0.634
G1X8.985Y69.018
G2X9.511Y69.389I1.159J-1.084
G1X9.661Y69.464
G2X10.446Y69.672I0.784J-1.380
G1X10.972
G2X11.756Y69.464I0.000J-1.588
G1X11.906Y69.389
G2X12.432Y69.018I-0.634J-1.455
G1X12.507Y68.943
G2X12.814Y68.548I-1.084J-1.159
G2X13.112Y67.946I-1.241J-0.990
G2X13.231Y67.454I-1.464J-0.613
G2X13.311Y66.957I-1.508J-0.497
G1Y66.431
G2X13.187Y65.817I-1.588J0.000
G1X13.028Y65.421
G2X12.657Y64.896I-1.455J0.634
G1X12.582Y64.820
G2X12.187Y64.514I-1.159J1.084
G2X11.197Y64.167I-0.990J1.241
G1X10.596
G2X9.436Y64.670I0.000J1.588
G1X9.361Y64.745
X9.286Y64.820
X9.211Y64.896
G2X8.904Y65.290I1.084J1.159
G1X8.754Y65.516
X8.539Y65.872
G2X8.332Y66.656I1.380J0.784
G1Y67.633
G0Z5.080
G0X23.699Y82.695
G1Z-5.000F300.0
G1X23.774Y82.545F1000.0
G2X23.982Y81.761I-1.380J-0.784
G1Y81.535
G2X23.774Y80.751I-1.588J0.000
G2X23.403Y80.226I-1.455J0.634
G2X22.244Y79.723I-1.159J1.084
G1X22.169
G2X21.009Y80.226I0.000J1.588
G2X20.638Y80.751I1.084J1.159
G2X20.431Y81.535I1.380J0.784
G1Y82.062
G2X20.934Y83.221I1.588J0.000
G2X22.093Y83.724I1.159J-1.084
G1X22.169
G2X23.328Y83.221I0.000J-1.587
G2X23.699Y82.695I-1.084J-1.159
G0Z5.080
G0X31.177Y73.397
G1Z-5.000F300.0
G1X30.929Y73.613F1000.0
X30.854Y73.688
G2X30.482Y74.214I1.084J1.159
G2X30.275Y74.998I1.380J0.784
G1Y75.223
G2X30.482Y76.007I1.588J0.000
G2X30.854Y76.533I1.455J-0.634
G1X30.929Y76.608
X31.004Y76.683
X31.079Y76.758
G2X31.605Y77.129I1.159J-1.084
G2X32.389Y77.337I0.784J-1.380
G1X32.689
G2X34.229Y76.137I0.000J-1.587
G2X34.352Y75.524I-1.464J-0.613
G1Y75.223
X34.348Y75.115
X34.375Y75.100
G2X34.901Y74.729I-0.634J-1.455
G1X34.913Y74.718
G2X35.277Y74.429I-0.796J-1.374
G1X35.352Y74.354
G2X35.855Y73.194I-1.084J-1.159
G1Y72.818
G2X35.352Y71.659I-1.588J0.000
G1X35.277Y71.584
G2X34.751Y71.213I-1.159J1.084
G1X34.601Y71.137
X34.450Y71.062
G2X33.666Y70.855I-0.784J1.380
G1X33.215
G2X32.225Y71.202I0.000J1.587
G2X31.830Y71.509I0.765J1.391
G2X31.459Y72.034I1.084J1.159
G1X31.300Y72.430
G2X31.177Y73.044I1.464J0.613
G1Y73.397
G0Z5.080
G0X34.054Y83.676
G1Z-5.000F300.0
G1X34.304Y83.591F1000.0
X34.310Y83.597
G2X34.836Y83.968I1.159J-1.084
G2X35.620Y84.175I0.784J-1.380
G1X35.846
G2X37.005Y83.672I0.000J-1.587
G1X37.080Y83.597
X37.155Y83.522
G2X37.526Y82.996I-1.084J-1.159
G2X37.734Y82.212I-1.380J-0.784
G1Y81.868
G2X37.809Y81.385I-1.512J-0.483
G1Y80.934
G2X37.608Y80.162I-1.588J0.000
G1X37.451Y79.774
X37.376Y79.624
X37.301Y79.474
G2X36.930Y78.948I-1.455J0.634
G1X36.855Y78.873
X36.844Y78.861
X36.711Y78.667
G2X36.404Y78.272I-1.391J0.765
G1X36.329Y78.197
X36.254Y78.122
X36.178Y78.046
X36.103Y77.971
G2X35.578Y77.600I-1.159J1.084
G2X34.793Y77.393I-0.784J1.380
G1X34.267
G2X33.483Y77.600I0.000J1.587
G2X32.958Y77.971I0.634J1.455
G1X32.883Y78.046
X32.807Y78.122
G2X32.501Y78.516I1.084J1.159
G1X32.350Y78.742
X32.339Y78.755
X32.163Y78.746
X31.788
G2X31.294Y78.824I0.000J1.587
G2X30.360Y78.520I-0.934J1.283
G1X29.984
G2X28.825Y79.023I0.000J1.588
G1X28.749Y79.099
G2X28.378Y79.624I1.084J1.159
G1X28.303Y79.774
G2X28.096Y80.559I1.380J0.784
G1Y81.460
G2X28.219Y82.074I1.588J0.000
G1X28.378Y82.470
X28.453Y82.620
G2X28.825Y83.146I1.455J-0.634
G1X28.900Y83.221
X28.975Y83.296
G2X29.501Y83.667I1.159J-1.084
G2X30.285Y83.874I0.784J-1.380
G1X30.585
G2X31.199Y83.751I0.000J-1.587
G1X31.276Y83.730
X31.550Y83.826
G2X32.163Y83.950I0.613J-1.464
G1X32.614
G2X33.288Y83.799I0.000J-1.588
G1X33.441
G2X34.054Y83.676I0.000J-1.587
G0Z5.080
G0X32.154Y0.001
G1Z-6.000F300.0
G1X0.040F1000.0
X0.004Y0.004
X0.000Y0.058
Y2.224
X2.229
X2.152Y2.372
X2.062Y2.556
X1.997Y2.751
X1.958Y2.953
X1.944Y3.156
Y3.382
X1.958Y3.591
X2.000Y3.797
X2.068Y3.995
X2.138Y4.209
X2.240Y4.414
X2.262Y4.446
X0.000
Y6.669
X6.110
X6.159Y6.762
X6.283Y6.939
X6.430Y7.096
X6.506Y7.171
X6.661Y7.317
X6.839Y7.442
X7.033Y7.543
X7.240Y7.616
X7.452Y7.660
X7.665Y7.674
X8.191
X8.395Y7.661
X8.597Y7.622
X8.792Y7.556
X8.975Y7.467
X9.167Y7.368
X9.343Y7.243
X9.501Y7.096
X9.617Y6.976
X9.720Y6.843
X9.808Y6.701
X9.830Y6.669
G0Z5.080
G0X6.119Y2.224
G1Z-6.000F300.0
G1X7.267F1000.0
X7.290Y2.194
X7.407Y2.072
X7.483Y1.997
X7.558Y1.922
X7.633Y1.846
X7.790Y1.699
X7.967Y1.575
X8.158Y1.475
X8.342Y1.386
X8.537Y1.321
X8.739Y1.281
X8.943Y1.268
X9.318
X9.531Y1.282
X9.744Y1.326
X9.950Y1.399
X10.145Y1.500
X10.322Y1.626
X10.478Y1.771
X10.553Y1.846
X10.628Y1.922
X10.703Y1.997
X10.819Y2.117
X10.902Y2.224
X33.045
X33.108Y2.287
X33.183Y2.362
X33.258Y2.437
X33.333Y2.512
X33.491Y2.659
X33.668Y2.784
X33.859Y2.883
X33.862Y2.885
X33.864Y2.888
X33.963Y3.080
X34.088Y3.256
X34.235Y3.414
X34.310Y3.489
X34.385Y3.564
X34.461Y3.639
X34.626Y3.793
X34.814Y3.922
X35.018Y4.024
X35.232Y4.094
X35.430Y4.162
X35.637Y4.204
X35.846Y4.218
X36.071
X36.280Y4.204
X36.486Y4.162
X36.684Y4.094
X36.889Y4.028
X37.084Y3.933
X37.264Y3.814
X37.316Y3.865
X37.488Y4.023
X37.680Y4.154
X37.692Y4.165
X37.700Y4.174
X37.799Y4.362
X37.859Y4.446
X11.577
G0Z5.080
G0X9.830Y6.669
G1Z-6.000F300.0
G1X16.043F1000.0
X16.170Y6.599
X16.389Y6.517
X16.612Y6.469
X16.833Y6.453
X17.209
X17.422Y6.468
X17.634Y6.511
X17.841Y6.585
X18.003Y6.669
X41.022
X41.074Y6.720
X41.231Y6.867
X41.408Y6.992
X41.599Y7.092
X41.672Y7.131
X41.900Y7.397
X41.975Y7.472
X42.051Y7.547
X42.208Y7.694
X42.385Y7.819
X42.576Y7.918
X42.751Y8.004
X42.937Y8.068
X43.127Y8.108
X43.301Y8.159
X43.480Y8.190
X43.661Y8.201
X43.736
X43.917Y8.190
X44.096Y8.159
X44.270Y8.108
X44.476Y8.063
X44.677Y7.990
X44.868Y7.891
X45.042Y7.766
X45.196Y7.622
X45.208Y7.611
X45.374Y7.500
X45.527Y7.368
X45.662Y7.216
X45.777Y7.049
X45.868Y6.871
X45.943Y6.721
X45.968Y6.669
G0Z5.080
G0X43.239Y0.001
G1Z-6.000F300.0
G1X63.460F1000.0
X63.496Y0.004
X63.500Y0.058
Y2.224
X45.420
X45.426Y2.242
X45.491Y2.429
X45.532Y2.623
X45.583Y2.796
X45.614Y2.975
X45.624Y3.156
Y3.275
X45.680Y3.513
X45.699Y3.757
Y4.252
X45.740Y4.446
X63.500
Y6.669
X45.968
G0Z5.080
G0X63.500Y8.891
G1Z-6.000F300.0
G1X41.647F1000.0
X41.636Y8.869
X41.511Y8.692
X41.364Y8.535
X41.288Y8.459
X41.277Y8.448
X41.146Y8.255
X40.988Y8.084
X40.913Y8.009
X40.838Y7.933
X40.680Y7.786
X40.503Y7.662
X40.312Y7.562
X40.128Y7.473
X39.933Y7.408
X39.731Y7.368
X39.528Y7.355
X39.227
X39.015Y7.369
X38.802Y7.413
X38.595Y7.486
X38.401Y7.587
X38.223Y7.713
X38.068Y7.858
X37.993Y7.933
X37.917Y8.009
X37.842Y8.084
X37.697Y8.239
X37.571Y8.417
X37.470Y8.611
X37.397Y8.818
X37.382Y8.891
X18.769
X18.740Y8.973
X18.639Y9.168
X18.514Y9.345
X18.368Y9.501
X18.293Y9.576
X18.138Y9.722
X17.960Y9.847
X17.766Y9.948
X17.559Y10.021
X17.346Y10.065
X17.134Y10.079
X16.908
X16.696Y10.065
X16.483Y10.021
X16.276Y9.948
X16.082Y9.847
X15.904Y9.722
X15.749Y9.576
X15.602Y9.419
X15.477Y9.242
X15.378Y9.050
X15.300Y8.891
X0.000
Y11.114
G0Z5.080
G0X15.300Y8.891
G1Z-6.000F300.0
G1X0.000F1000.0
Y11.114
X32.596
X32.649Y11.035
X32.807Y10.864
X32.963Y10.719
X33.140Y10.593
X33.335Y10.492
X33.542Y10.419
X33.754Y10.375
X33.967Y10.361
X34.418
X34.629Y10.375
X34.839Y10.418
X35.043Y10.489
X35.234Y10.587
X35.408Y10.708
X35.579Y10.816
X35.695Y10.812
X35.921
X36.124Y10.825
X36.326Y10.865
X36.521Y10.930
X36.705Y11.019
X36.884Y11.114
X37.114
G0Z5.080
G0X38.313Y13.336
G1Z-6.000F300.0
G1X37.845F1000.0
X37.829Y13.416
X37.761Y13.614
X37.690Y13.828
X37.589Y14.032
X37.459Y14.220
X37.306Y14.386
X37.230Y14.461
X37.087Y14.597
X36.926Y14.714
X36.753Y14.810
X36.700Y14.912
X36.601Y15.103
X36.476Y15.280
X36.329Y15.438
X36.254Y15.513
X36.204Y15.559
G0Z5.080
G0X42.236Y11.114
G1Z-6.000F300.0
G1X43.492F1000.0
X43.557Y11.022
X43.704Y10.864
X43.861Y10.717
X44.038Y10.592
X44.230Y10.493
X44.380Y10.418
X44.563Y10.329
X44.758Y10.263
X44.960Y10.224
X45.164Y10.211
X45.615
X45.824Y10.225
X46.030Y10.266
X46.228Y10.334
X46.432Y10.400
X46.624Y10.493
X46.775Y10.568
X46.966Y10.667
X47.143Y10.792
X47.300Y10.939
X47.375Y11.014
X47.451Y11.090
X47.473Y11.114
X63.500
Y13.336
X48.179
Y13.978
X48.166Y14.181
X48.127Y14.383
X48.061Y14.578
X47.972Y14.762
X47.897Y14.912
X47.822Y15.062
X47.723Y15.253
X47.598Y15.430
X47.478Y15.559
X63.500
Y17.781
X47.034
X46.995Y17.837
X46.849Y17.993
X46.774Y18.068
X46.617Y18.215
X46.440Y18.340
X46.249Y18.439
X46.065Y18.528
X45.870Y18.593
X45.668Y18.633
X45.464Y18.646
X45.014
X44.801Y18.632
X44.588Y18.588
X44.382Y18.515
X44.187Y18.414
X44.010Y18.288
X43.854Y18.143
X43.709Y17.987
X43.583Y17.810
X43.568Y17.781
G0Z5.080
G0X57.169Y20.004
G1Z-6.000F300.0
G1X63.500F1000.0
Y22.226
X57.723
Y23.146
X57.704Y23.390
X57.648Y23.628
Y24.122
X57.629Y24.367
X57.610Y24.449
X63.500
Y26.671
X58.030
X58.063Y26.794
X58.090Y26.960
X58.099Y27.128
Y27.397
X58.152Y27.619
X58.174Y27.847
X58.199Y27.934
X58.307Y28.173
X58.584Y28.385
X58.849Y28.577
X59.037Y28.627
X59.267Y28.661
X59.490Y28.729
X59.700Y28.829
X59.829Y28.894
X63.500
Y31.116
X61.099
X61.091Y31.245
X61.049Y31.451
X60.981Y31.649
X60.928Y31.820
X60.856Y31.983
X60.816Y32.157
X60.756Y32.326
X60.681Y32.551
X60.649Y32.660
X60.624Y32.844
X60.578Y33.023
X60.566Y33.192
X60.539Y33.339
X63.500
Y35.561
X59.676
X59.663Y35.754
X59.622Y35.960
X59.554Y36.158
X59.487Y36.362
X59.395Y36.555
X59.308Y36.725
X59.200Y36.885
X59.075Y37.030
X59.052Y37.246
X59.000Y37.456
X58.979Y37.684
X58.955Y37.784
X63.500
Y40.006
X59.001
Y40.967
X59.103Y41.170
X59.176Y41.385
X59.264Y41.573
X59.328Y41.770
X59.403Y41.996
X59.476Y42.212
X59.484Y42.229
X63.500
Y44.451
X59.721
X59.704Y44.500
X59.638Y44.703
X59.545Y44.896
X59.449Y45.081
X59.330Y45.252
X59.242Y45.394
X59.139Y45.527
X59.023Y45.647
X58.948Y45.722
X58.873Y45.797
X58.798Y45.872
X58.723Y45.948
X58.648Y46.023
X58.482Y46.176
X58.295Y46.306
X58.090Y46.407
X57.876Y46.478
X57.689Y46.543
X57.496Y46.584
X57.230Y46.653
X57.225Y46.674
X63.500
Y48.896
X56.514
X56.431Y48.992
X56.261Y49.139
X56.074Y49.260
X55.903Y49.379
X55.717Y49.475
X55.519Y49.546
X55.316Y49.590
X55.156Y49.638
X54.991Y49.668
X54.825Y49.682
X54.665Y49.855
X54.590Y49.930
X54.515Y50.006
X54.394Y50.122
X54.262Y50.224
X54.120Y50.313
X53.949Y50.432
X53.763Y50.527
X53.613Y50.602
X53.430Y50.691
X53.234Y50.757
X53.033Y50.796
X52.829Y50.809
X51.476
X51.273Y50.796
X51.071Y50.757
X50.876Y50.691
X50.692Y50.602
X50.501Y50.503
X50.324Y50.378
X50.167Y50.231
X50.091Y50.156
X50.016Y50.081
X49.864Y49.917
X49.736Y49.732
X49.634Y49.530
X49.564Y49.318
X49.477Y49.137
X49.414Y48.945
X49.404Y48.896
G0Z5.080
G0X41.273Y13.336
G1Z-6.000F300.0
G1X43.155F1000.0
X43.168Y13.376
X43.258Y13.559
X43.365Y13.765
X43.502Y13.952
X43.520Y14.143
X43.560Y14.332
X43.624Y14.514
X43.708Y14.686
X43.784Y14.837
X43.872Y15.010
X43.980Y15.170
X43.929Y15.223
X43.782Y15.380
X43.657Y15.557
X43.657Y15.559
X38.308
G0Z5.080
G0X0.000Y11.114
G1Z-6.000F300.0
G1X32.596F1000.0
X32.516Y11.231
X32.413Y11.446
X32.344Y11.672
X32.309Y11.902
X32.265Y12.065
X32.238Y12.231
X32.229Y12.399
Y13.336
X0.000
Y15.559
X33.182
X33.210Y15.581
X33.353Y15.669
X33.524Y15.788
X33.709Y15.884
X33.892Y15.973
X34.087Y16.038
X34.289Y16.078
X34.493Y16.091
X34.944
X35.147Y16.078
X35.349Y16.038
X35.544Y15.973
X35.728Y15.884
X35.919Y15.785
X36.096Y15.660
X36.204Y15.559
X36.839
X36.923Y15.529
X37.136Y15.485
X37.349Y15.471
X37.799
X38.012Y15.485
X38.225Y15.529
X38.308Y15.559
G0Z5.080
G0X36.204
G1Z-6.000F300.0
G1X36.839F1000.0
X36.923Y15.529
X37.136Y15.485
X37.349Y15.471
X37.799
X38.012Y15.485
X38.225Y15.529
X38.308Y15.559
X43.657
X43.558Y15.748
X43.469Y15.932
X43.404Y16.127
X43.364Y16.329
X43.351Y16.533
Y16.983
X43.365Y17.196
X43.409Y17.409
X43.482Y17.615
X43.568Y17.781
X39.436
X39.404Y17.935
X39.331Y18.141
X39.230Y18.336
X39.104Y18.513
X38.959Y18.669
X38.803Y18.814
X38.626Y18.940
X38.431Y19.041
X38.225Y19.114
X38.012Y19.158
X37.799Y19.172
X37.349
X37.136Y19.158
X36.923Y19.114
X36.717Y19.041
X36.522Y18.940
X36.345Y18.814
X36.189Y18.669
X36.044Y18.513
X35.918Y18.336
X35.817Y18.141
X35.744Y17.935
X35.712Y17.781
G0Z5.080
G0X43.568
G1Z-6.000F300.0
G1X39.436F1000.0
X39.404Y17.935
X39.331Y18.141
X39.230Y18.336
X39.104Y18.513
X38.959Y18.669
X38.803Y18.814
X38.626Y18.940
X38.431Y19.041
X38.225Y19.114
X38.012Y19.158
X37.799Y19.172
X37.349
X37.136Y19.158
X36.923Y19.114
X36.717Y19.041
X36.522Y18.940
X36.345Y18.814
X36.189Y18.669
X36.044Y18.513
X35.918Y18.336
X35.817Y18.141
X35.744Y17.935
X35.712Y17.781
X0.000
G0Z5.080
G0X35.712
G1Z-6.000F300.0
G1X0.000F1000.0
Y20.004
X53.546
X53.502Y20.066
X53.403Y20.257
X53.310Y20.450
X53.243Y20.654
X53.175Y20.852
X53.134Y21.058
X53.120Y21.267
Y21.643
X53.131Y21.823
X53.161Y22.002
X53.213Y22.176
X53.217Y22.206
X53.216Y22.226
X38.623
X38.654Y22.286
X38.725Y22.428
X38.856Y22.585
X38.965Y22.757
X39.086Y22.931
X39.184Y23.122
X39.255Y23.325
X39.298Y23.536
X39.312Y23.747
Y23.972
X39.298Y24.183
X39.255Y24.394
X39.236Y24.449
X51.536
X51.519Y24.466
X51.444Y24.541
X51.286Y24.712
X51.155Y24.905
X51.033Y25.049
X50.929Y25.206
X50.787Y25.377
X50.670Y25.568
X50.581Y25.773
X50.359Y25.809
X50.143Y25.877
X49.941Y25.974
X49.749Y26.073
X49.573Y26.198
X49.415Y26.345
X49.340Y26.420
X49.265Y26.495
X49.143Y26.622
X48.977Y26.664
X48.958Y26.671
X37.793
X37.754Y26.867
X37.686Y27.065
X37.641Y27.211
X37.601Y27.402
X37.537Y27.587
X37.451Y27.762
X37.433Y27.803
Y28.256
X37.419Y28.468
X37.375Y28.681
X37.302Y28.888
X37.299Y28.894
X47.334
Y29.007
X47.344Y29.188
X47.375Y29.367
X47.426Y29.541
X47.473Y29.755
X47.550Y29.961
X47.653Y30.154
X47.694Y30.341
X47.758Y30.522
X47.833Y30.748
X47.860Y30.842
Y31.036
X47.867Y31.116
X35.296
X35.427Y31.229
X35.502Y31.304
X35.577Y31.380
X35.652Y31.455
X35.728Y31.530
X35.875Y31.687
X35.999Y31.864
X36.099Y32.056
X36.188Y32.239
X36.253Y32.434
X36.293Y32.636
X36.306Y32.840
Y33.140
X36.293Y33.339
X47.456
X47.386Y33.409
X47.311Y33.484
X47.157Y33.649
X47.028Y33.837
X46.926Y34.041
X46.856Y34.255
X46.783Y34.472
X46.697Y34.653
X46.633Y34.845
X46.595Y35.044
X46.582Y35.244
Y35.561
G0Z5.080
G0X34.155Y22.226
G1Z-6.000F300.0
G1X18.408F1000.0
X18.364Y22.136
X18.265Y21.945
X18.140Y21.768
X17.993Y21.610
X17.917Y21.535
X17.797Y21.419
X17.665Y21.316
X17.523Y21.228
X17.352Y21.109
X17.166Y21.014
X16.983Y20.925
X16.788Y20.859
X16.586Y20.820
X16.382Y20.807
X15.856
X15.653Y20.820
X15.451Y20.859
X15.256Y20.925
X15.072Y21.014
X14.881Y21.113
X14.704Y21.238
X14.546Y21.385
X14.471Y21.460
X14.396Y21.535
X14.249Y21.693
X14.124Y21.870
X14.025Y22.061
X13.945Y22.226
X0.000
Y24.449
X13.895
X13.932Y24.564
X14.025Y24.756
X14.100Y24.907
X14.199Y25.098
X14.324Y25.275
X14.471Y25.432
X14.546Y25.507
X14.622Y25.583
X14.697Y25.658
X14.852Y25.803
X15.030Y25.929
X15.224Y26.030
X15.431Y26.103
X15.644Y26.147
X15.856Y26.161
X16.457
X16.670Y26.147
X16.883Y26.103
X17.089Y26.030
X17.284Y25.929
X17.461Y25.803
X17.617Y25.658
X17.692Y25.583
X17.767Y25.507
X17.914Y25.350
X18.039Y25.173
X18.138Y24.982
X18.213Y24.831
X18.289Y24.681
X18.382Y24.488
X18.394Y24.449
X28.814
G0Z5.080
G0X28.487Y26.671
G1Z-6.000F300.0
G1X0.000F1000.0
Y28.894
X31.089
X31.154Y28.964
X31.229Y29.039
X31.304Y29.115
X31.380Y29.190
X31.391Y29.201
X31.522Y29.394
X31.680Y29.565
X31.795Y29.676
X31.839Y29.724
X31.922Y29.887
X32.024Y30.039
X32.142Y30.178
X32.274Y30.371
X32.432Y30.542
X32.507Y30.617
X32.675Y30.773
X32.863Y30.903
X32.708Y30.995
X32.563Y31.104
X32.550Y31.116
X0.000
Y33.339
X31.729
G0Z5.080
G0X46.582Y35.561
G1Z-6.000F300.0
G1X0.000F1000.0
Y37.784
X33.697
X33.634Y37.842
X33.559Y37.917
X33.412Y38.075
X33.287Y38.252
X33.188Y38.443
X33.113Y38.593
X33.023Y38.777
X32.958Y38.972
X32.919Y39.174
X32.905Y39.378
Y39.979
X32.907Y40.006
X0.000
Y42.229
G0Z5.080
G0X37.017Y37.784
G1Z-6.000F300.0
G1X42.620F1000.0
X42.613Y37.821
X42.599Y38.025
Y38.701
X42.612Y38.902
X42.650Y39.100
X42.714Y39.293
X42.800Y39.474
X42.842Y39.610
X42.905Y39.874
X42.923Y40.006
X37.884
G0Z5.080
G0X0.000Y42.229
G1Z-6.000F300.0
G1X43.894F1000.0
X43.929Y42.265
X44.085Y42.411
X44.230Y42.566
X44.305Y42.641
X44.380Y42.716
X44.382Y42.718
X44.446Y42.910
X44.535Y43.092
X44.610Y43.243
X44.709Y43.434
X44.834Y43.611
X44.981Y43.768
X45.139Y43.915
X45.316Y44.040
X45.507Y44.140
X45.691Y44.229
X45.886Y44.294
X46.088Y44.334
X46.291Y44.347
X46.667
X46.876Y44.333
X47.082Y44.291
X47.280Y44.223
X47.375Y44.196
X47.418
X47.627Y44.183
X47.834Y44.141
X48.032Y44.073
X48.235Y44.007
X48.428Y43.914
X48.613Y43.819
X48.784Y43.699
X48.958Y43.589
X49.116Y43.457
X49.174Y43.421
X49.326Y43.440
X49.488Y43.484
X49.655Y43.511
X49.823Y43.520
X49.898
X50.107Y43.506
X50.313Y43.465
X50.512Y43.397
X50.705Y43.335
X50.889Y43.248
X50.981Y43.306
X50.993Y43.317
X51.068Y43.393
X51.226Y43.540
X51.403Y43.665
X51.594Y43.764
X51.744Y43.839
X51.764Y43.850
X51.780Y43.863
X51.749Y43.929
X51.674Y44.079
X51.663Y44.099
X51.513Y44.324
X51.428Y44.451
X37.954
X37.989Y44.458
X38.187Y44.526
X38.402Y44.597
X38.606Y44.698
X38.793Y44.828
X38.959Y44.981
X39.034Y45.056
X39.109Y45.132
X39.263Y45.297
X39.392Y45.485
X39.494Y45.689
X39.564Y45.903
X39.632Y46.101
X39.674Y46.308
X39.688Y46.517
Y46.592
X39.683Y46.674
X42.089
G0Z5.080
G0X32.708Y44.451
G1Z-6.000F300.0
G1X32.705F1000.0
X32.520Y44.323
X32.316Y44.222
X32.100Y44.151
X31.902Y44.083
X31.696Y44.041
X31.487Y44.027
X31.036
X30.832Y44.040
X30.631Y44.080
X30.435Y44.145
X30.252Y44.234
X30.164Y44.276
X30.097Y44.289
X29.759Y44.253
X29.157
X28.945Y44.267
X28.732Y44.311
X28.525Y44.384
X28.396Y44.451
X0.000
Y46.674
X21.197
X21.129Y46.695
X20.934Y46.789
X20.763Y46.877
X20.603Y46.984
X20.458Y47.109
X20.214Y47.137
X19.974Y47.204
X19.745Y47.308
X19.537Y47.446
X19.356Y47.612
X19.347Y47.620
X19.205Y47.691
X19.014Y47.791
X18.837Y47.915
X18.680Y48.062
X18.604Y48.138
X18.457Y48.295
X18.333Y48.472
X18.233Y48.663
X18.140Y48.856
X18.127Y48.896
X0.000
Y51.119
X17.005
X16.956Y51.218
X16.881Y51.369
X16.805Y51.519
X16.739Y51.650
X16.500Y51.719
X16.274Y51.824
X16.083Y51.924
X15.906Y52.049
X15.749Y52.196
X15.674Y52.271
X15.558Y52.391
X15.455Y52.523
X15.367Y52.666
X15.239Y52.851
X15.139Y53.054
X15.068Y53.268
X15.043Y53.341
X0.000
Y55.564
X15.321
Y55.685
X15.332Y55.872
X15.323Y55.983
X15.219Y56.274
X15.143Y56.499
X15.075Y56.697
X15.034Y56.903
X15.020Y57.112
Y57.488
X15.039Y57.732
X15.052Y57.786
X0.000
Y60.009
X17.433
X17.425Y60.118
Y60.613
X17.398Y60.707
X17.330Y60.905
X17.288Y61.112
X17.275Y61.321
Y61.364
X17.218Y61.603
X17.199Y61.847
Y62.231
X6.953
X7.003Y62.357
X7.057Y62.594
X7.073Y62.824
Y63.049
X7.045Y63.350
X7.073Y63.650
Y64.327
X7.065Y64.454
X8.709
G0Z5.080
G0X3.791Y62.231
G1Z-6.000F300.0
G1X0.000F1000.0
Y64.454
X2.194
X2.167Y64.493
X2.076Y64.670
X2.001Y64.820
X1.912Y65.004
X1.847Y65.199
X1.807Y65.401
X1.794Y65.604
Y65.905
X1.808Y66.114
X1.849Y66.320
X1.917Y66.518
X1.949Y66.627
X1.956Y66.676
X0.000
Y68.899
X2.489
G0Z5.080
G0X12.967Y64.454
G1Z-6.000F300.0
G1X17.717F1000.0
X17.803Y64.620
X17.922Y64.791
X18.032Y64.964
X18.165Y65.122
X18.296Y65.315
X18.454Y65.486
X18.529Y65.561
X18.604Y65.636
X18.680Y65.712
X18.755Y65.787
X18.830Y65.862
X18.905Y65.937
X19.063Y66.084
X19.239Y66.209
X19.431Y66.308
X19.614Y66.397
X19.809Y66.463
X20.011Y66.502
X20.215Y66.515
X20.591
X20.794Y66.502
X20.996Y66.463
X21.191Y66.397
X21.375Y66.308
X21.525Y66.233
X21.716Y66.134
X21.893Y66.009
X22.051Y65.862
X22.071Y65.842
X22.156Y65.866
X22.334Y65.928
X22.517Y65.969
X22.211Y66.103
X22.061Y66.178
X21.870Y66.277
X21.693Y66.402
X21.535Y66.549
X21.460Y66.624
X21.408Y66.676
X19.321
X19.345Y66.699
X19.420Y66.774
X19.574Y66.940
X19.704Y67.127
X19.805Y67.331
X19.875Y67.546
X19.943Y67.744
X19.985Y67.950
X19.999Y68.159
Y68.760
X19.990Y68.899
X20.226
X20.216Y68.955
X20.205Y69.136
Y69.587
X20.219Y69.796
X20.261Y70.002
X20.329Y70.200
X20.395Y70.404
X20.488Y70.597
X20.556Y70.735
X20.582Y70.823
X20.581Y70.832
X20.535Y71.011
X20.521Y71.121
X17.237
X17.237Y71.123
X17.161Y71.273
X17.086Y71.423
X16.991Y71.608
X16.872Y71.779
X16.784Y71.921
X16.681Y72.054
X16.565Y72.174
X16.407Y72.321
X16.230Y72.446
X16.039Y72.545
X15.889Y72.621
X15.705Y72.710
X15.510Y72.775
X15.308Y72.815
X15.105Y72.828
X14.879
X14.676Y72.815
X14.474Y72.775
X14.279Y72.710
X14.095Y72.621
X13.945Y72.545
X13.754Y72.446
X13.577Y72.321
X13.419Y72.174
X13.272Y72.017
X13.147Y71.840
X13.048Y71.649
X12.973Y71.498
X12.898Y71.348
X12.809Y71.165
X12.794Y71.121
X4.427
G0Z5.080
G0X5.715Y73.344
G1Z-6.000F300.0
G1X21.054F1000.0
X21.084Y73.377
X21.159Y73.452
X21.235Y73.527
X21.310Y73.602
X21.385Y73.677
X21.393Y73.686
X21.447Y73.795
X21.365Y73.972
X21.305Y74.159
X21.269Y74.352
X21.257Y74.547
Y75.148
X21.258Y75.167
X21.235Y75.191
X21.088Y75.348
X20.963Y75.525
X20.941Y75.566
X5.607
X5.521Y75.691
X5.368Y75.857
X5.293Y75.932
X5.217Y76.007
X5.052Y76.160
X4.864Y76.290
X4.660Y76.391
X4.446Y76.462
X4.248Y76.530
X4.042Y76.571
X3.833Y76.585
X3.156
X2.953Y76.572
X2.751Y76.532
X2.556Y76.467
X2.372Y76.378
X2.187Y76.282
X2.016Y76.163
X1.996Y76.153
X1.846Y76.077
X1.680Y75.993
X1.525Y75.890
X1.384Y75.770
X1.189Y75.637
X1.170Y75.626
X1.048Y75.566
X0.000
G0Z5.080
G0Y77.789
G1Z-6.000F300.0
G1X20.363F1000.0
X20.360Y77.807
X20.329Y77.916
X20.264Y78.103
X20.223Y78.297
X20.147Y78.597
X20.096Y78.771
X20.065Y78.950
X20.055Y79.131
Y79.775
X20.030Y79.861
X20.026Y79.869
X19.927Y80.011
X11.240
X11.304Y80.075
X11.380Y80.151
X11.525Y80.306
X11.651Y80.483
X11.752Y80.678
X11.825Y80.885
X11.868Y81.097
X11.883Y81.310
Y81.451
X11.949
X12.161Y81.465
X12.374Y81.509
X12.580Y81.582
X12.775Y81.683
X12.952Y81.809
X13.108Y81.954
X13.183Y82.029
X13.329Y82.185
X13.363Y82.234
X19.139
X19.129Y82.264
X19.091Y82.462
X19.078Y82.663
Y82.963
X19.091Y83.167
X19.131Y83.369
X19.196Y83.564
X19.285Y83.747
X19.360Y83.898
X19.420Y84.020
X19.356Y84.213
X19.317Y84.413
X19.314Y84.456
X13.294
X13.279Y84.476
X13.314Y84.503
X13.456Y84.591
X13.589Y84.694
X13.709Y84.810
X13.784Y84.885
X13.859Y84.960
X14.005Y85.116
X14.130Y85.293
X14.231Y85.488
X14.305Y85.694
X14.348Y85.907
X14.363Y86.120
Y86.495
X14.350Y86.678
X20.571
X20.591Y86.687
X20.786Y86.753
X20.988Y86.792
X21.192Y86.805
X21.267
X21.470Y86.792
X21.672Y86.753
X21.867Y86.687
X21.888Y86.678
G0Z5.080
G0X27.717Y77.789
G1Z-6.000F300.0
G1X27.655Y77.819F1000.0
X27.441Y77.890
X27.243Y77.958
X27.037Y77.999
X26.828Y78.013
X26.452
X26.224Y77.996
X25.999Y77.947
X25.785Y77.866
X25.771Y78.066
X25.731Y78.265
X25.666Y78.457
X25.578Y78.637
X25.503Y78.788
X25.444Y78.908
X25.658Y79.099
X25.805Y79.256
X25.930Y79.433
X26.029Y79.624
X26.118Y79.808
X26.183Y80.003
X26.185Y80.011
X26.871
X26.845Y80.119
X26.823Y80.287
X26.770Y80.494
X26.745Y80.707
X26.725Y80.751
X26.636Y80.935
X26.570Y81.130
X26.531Y81.332
X26.518Y81.535
Y81.761
X26.532Y81.974
X26.576Y82.186
X26.593Y82.234
X25.593
X25.583Y82.244
X25.425Y82.391
X25.248Y82.516
X25.057Y82.615
X24.861Y82.709
X24.654Y82.776
X24.658Y82.888
Y83.264
X24.644Y83.477
X24.600Y83.689
X24.527Y83.896
X24.426Y84.090
X24.300Y84.268
X24.155Y84.423
X24.120Y84.456
X26.818
Y85.067
X26.833Y85.280
X26.876Y85.493
X26.950Y85.699
X27.051Y85.894
X27.176Y86.071
X27.322Y86.227
X27.397Y86.302
X27.554Y86.449
X27.731Y86.574
X27.922Y86.673
X27.931Y86.678
X21.888
G0Z5.080
G0X8.373Y80.011
G1Z-6.000F300.0
G1X8.159F1000.0
X8.148Y80.000
X8.073Y79.925
X7.917Y79.780
X7.740Y79.654
X7.546Y79.553
X7.339Y79.480
X7.126Y79.436
X6.914Y79.422
X6.388
X6.176Y79.436
X5.966Y79.479
X5.763Y79.550
X5.571Y79.648
X5.397Y79.769
X5.224Y79.879
X5.066Y80.011
X0.000Y80.011
Y80.428
X0.268Y80.399
X0.507Y80.343
X0.751Y80.324
X0.977
X1.181Y80.337
X1.382Y80.376
X1.578Y80.442
X1.761Y80.531
X1.911Y80.606
X2.103Y80.705
X2.279Y80.830
X2.437Y80.977
X2.587Y81.138
X2.713Y81.318
X2.793Y81.349
X3.007Y81.419
X3.211Y81.521
X3.399Y81.650
X3.564Y81.804
X3.639Y81.879
X3.715Y81.954
X3.843Y82.089
X3.951Y82.234
X4.049
G0Z5.080
G0X16.598Y66.676
G1Z-6.000F300.0
G1X14.184F1000.0
G0Z5.080
G0X24.372Y46.674
G1Z-6.000F300.0
G1X26.503F1000.0
G0Z5.080
G0X49.793
G1Z-6.000F300.0
G1X45.584F1000.0
X45.640Y46.713
X45.797Y46.860
X45.944Y47.018
X46.069Y47.194
X46.169Y47.386
X46.258Y47.569
X46.323Y47.764
X46.363Y47.966
X46.376Y48.170
Y48.245
X46.367Y48.413
X46.340Y48.580
X46.296Y48.742
X46.273Y48.896
X49.404
G0Z5.080
G0X43.050Y51.119
G1Z-6.000F300.0
G1X63.500F1000.0
Y53.341
X37.138
X37.012Y53.384
X36.806Y53.426
X36.597Y53.440
X36.296
X36.087Y53.426
X35.881Y53.384
X35.756Y53.341
X32.060
G0Z5.080
G0X32.113Y55.564
G1Z-6.000F300.0
G1X63.500F1000.0
Y57.786
X33.150
Y58.089
X33.136Y58.298
X33.094Y58.505
X33.026Y58.703
X32.950Y58.931
X32.840Y59.146
X32.699Y59.340
Y59.410
X32.755Y59.649
X32.774Y59.893
Y60.009
X63.500
Y62.231
X34.157
X34.189Y62.395
X34.202Y62.598
Y62.824
X34.189Y63.027
X34.149Y63.229
X34.084Y63.424
X33.995Y63.608
X33.895Y63.799
X33.770Y63.976
X33.623Y64.133
X33.615Y64.142
X33.521Y64.323
X33.430Y64.454
X63.500
Y66.676
X35.250
X35.352Y66.774
X35.427Y66.849
X35.574Y67.007
X35.699Y67.184
X35.798Y67.375
X35.891Y67.568
X35.957Y67.771
X36.025Y67.969
X36.067Y68.176
X36.080Y68.385
Y68.899
X63.500
Y71.121
X37.069
X37.080Y71.133
X37.227Y71.290
X37.352Y71.467
X37.451Y71.659
X37.541Y71.842
X37.606Y72.037
X37.645Y72.239
X37.659Y72.443
Y72.668
X37.645Y72.872
X37.606Y73.074
X37.541Y73.269
X37.504Y73.344
X63.500
Y75.566
X37.823
X37.902Y75.716
X37.977Y75.867
X38.067Y76.050
X38.132Y76.245
X38.171Y76.447
X38.185Y76.651
Y77.177
X38.171Y77.381
X38.132Y77.582
X38.067Y77.778
X38.061Y77.789
X63.500
Y80.011
X38.170
X38.217Y80.108
X38.278Y80.289
X38.318Y80.476
X38.369Y80.650
X38.400Y80.829
X38.410Y81.009
Y81.385
X38.391Y81.629
X38.335Y81.868
Y82.105
X38.365Y82.234
X63.500
Y84.456
X39.696
X39.756Y84.541
X39.857Y84.736
X39.930Y84.943
X39.974Y85.155
X39.988Y85.368
Y85.443
X39.970Y85.681
X39.916Y85.917
X39.825Y86.143
X39.702Y86.352
X39.552Y86.536
X39.478Y86.678
X63.500
Y88.842
X63.496Y88.896
X63.460Y88.899
X36.864
G0Z5.080
G0X30.681Y86.678
G1Z-6.000F300.0
G1X31.613F1000.0
X31.788Y86.762
X31.983Y86.828
X32.185Y86.867
X32.389Y86.880
X32.677
X32.466Y86.974
X32.270Y87.099
X32.095Y87.250
X31.879Y87.343
X31.672Y87.472
X31.484Y87.635
X31.321Y87.829
X31.191Y88.046
X31.098Y88.278
X31.044Y88.515
X31.027Y88.750
Y88.899
X11.282
G0Z5.080
G0X4.665Y84.456
G1Z-6.000F300.0
G1X4.352F1000.0
G0Z5.080
G0X0.000Y86.678
G1Z-6.000F300.0
G1X2.985F1000.0
X2.889Y86.872
X2.705Y86.862
X2.555
X2.346Y86.875
X2.140Y86.917
X1.942Y86.985
X1.738Y87.051
X1.545Y87.144
X1.338Y87.253
X1.145Y87.395
X0.975Y87.565
X0.833Y87.758
X0.724Y87.966
X0.635Y88.149
X0.569Y88.344
X0.530Y88.546
X0.517Y88.750
Y88.899
X0.040
G0Z5.080
G0X27.717Y77.789
G1Z-6.000F300.0
G1X28.021F1000.0
G0Z5.080
G0X6.466Y2.804
G1Z-6.000F300.0
G2X6.108Y2.210I-1.506J0.502F1000.0
G2X5.819Y1.846I-1.374J0.796
G2X5.293Y1.475I-1.159J1.084
G1X5.143Y1.400
G2X4.359Y1.193I-0.784J1.380
G1X3.908
G2X3.124Y1.400I0.000J1.588
G2X2.598Y1.771I0.634J1.455
G1X2.523Y1.846
G2X2.152Y2.372I1.084J1.159
G2X1.944Y3.156I1.380J0.784
G1Y3.382
G2X2.068Y3.995I1.588J0.000
G2X2.523Y4.767I1.539J-0.388
G1X2.598Y4.842
G2X3.202Y5.244I1.159J-1.084
G2X3.825Y5.478I0.856J-1.337
G2X4.359Y5.570I0.533J-1.495
G1X4.434
G2X4.967Y5.478I0.000J-1.588
G2X5.579Y5.252I-0.233J-1.570
G1X5.675Y5.573
X5.800Y5.907
G2X5.984Y6.420I1.564J-0.271
G1X6.059Y6.570
G2X6.430Y7.096I1.455J-0.634
G1X6.506Y7.171
G2X7.665Y7.674I1.159J-1.084
G1X8.191
G2X8.975Y7.467I0.000J-1.588
G2X9.501Y7.096I-0.634J-1.455
G2X9.808Y6.701I-1.084J-1.159
G1X10.022Y6.345
X10.037Y6.318
X10.328Y6.190
X10.478Y6.115
G2X11.300Y5.293I-0.634J-1.455
G1X11.375Y5.143
G2X11.582Y4.359I-1.380J-0.784
G1Y3.908
G2X11.459Y3.294I-1.588J0.000
G1X11.300Y2.898
X11.225Y2.748
X11.010Y2.392
G2X10.703Y1.997I-1.391J0.765
G1X10.628Y1.922
X10.553Y1.846
X10.478Y1.771
G2X9.318Y1.268I-1.159J1.084
G1X8.943
G2X8.158Y1.475I0.000J1.588
G2X7.633Y1.846I0.634J1.455
G1X7.558Y1.922
X7.483Y1.997
X7.407Y2.072
G2X7.097Y2.474I1.084J1.159
G1X6.806Y2.602
X6.466Y2.804
G0Z5.080
G0X15.378Y7.407
G1Z-6.000F300.0
G2X15.170Y8.191I1.380J0.784F1000.0
G1Y8.266
G2X15.378Y9.050I1.588J0.000
G2X15.749Y9.576I1.455J-0.634
G2X16.908Y10.079I1.159J-1.084
G1X17.134
G2X18.293Y9.576I0.000J-1.588
G1X18.368Y9.501
G2X18.872Y8.341I-1.084J-1.159
G1Y8.116
G2X18.368Y6.956I-1.588J0.000
G2X17.209Y6.453I-1.159J1.084
G1X16.833
G2X15.378Y7.407I0.000J1.588
G0Z5.080
G0X32.309Y11.902
G1Z-6.000F300.0
G2X32.229Y12.399I1.508J0.497F1000.0
G1Y13.827
G2X32.436Y14.611I1.588J0.000
G1X32.511Y14.762
G2X32.883Y15.287I1.455J-0.634
G1X32.958Y15.362
G2X33.353Y15.669I1.159J-1.084
G1X33.709Y15.884
G2X34.493Y16.091I0.784J-1.380
G1X34.944
G2X35.728Y15.884I0.000J-1.588
G2X36.254Y15.513I-0.634J-1.455
G1X36.329Y15.438
G2X36.700Y14.912I-1.084J-1.159
G1X36.753Y14.810
G2X37.230Y14.461I-0.682J-1.434
G1X37.306Y14.386
G2X37.761Y13.614I-1.084J-1.159
G2X37.884Y13.001I-1.464J-0.613
G1X37.917Y13.033
G2X38.443Y13.404I1.159J-1.084
G1X38.830Y13.561
G2X39.603Y13.761I0.773J-1.387
G1X40.129
G2X40.913Y13.554I0.000J-1.588
G2X41.439Y13.183I-0.634J-1.455
G2X41.746Y12.788I-1.084J-1.159
G1X41.960Y12.432
G2X42.163Y11.769I-1.380J-0.784
G2X42.243Y11.272I-1.508J-0.497
G1Y11.197
G2X42.167Y10.713I-1.587J0.000
G2X42.088Y10.249I-1.587J0.033
G1X42.000Y9.837
X41.894Y9.456
X41.735Y9.060
G2X41.364Y8.535I-1.455J0.634
G1X41.288Y8.459
X41.277Y8.448
G2X40.988Y8.084I-1.374J0.796
G1X40.913Y8.009
X40.838Y7.933
G2X40.312Y7.562I-1.159J1.084
G2X39.528Y7.355I-0.784J1.380
G1X39.227
G2X38.068Y7.858I0.000J1.588
G1X37.993Y7.933
X37.917Y8.009
X37.842Y8.084
G2X37.339Y9.243I1.084J1.159
G1Y9.813
X37.281Y10.062
X37.193Y10.475
G2X37.114Y10.972I1.508J0.497
G1Y11.277
G2X36.705Y11.019I-1.043J1.197
G2X35.921Y10.812I-0.784J1.380
G1X35.695
X35.579Y10.816
X35.408Y10.708
G2X34.418Y10.361I-0.990J1.241
G1X33.967
G2X32.807Y10.864I0.000J1.588
G2X32.309Y11.902I1.084J1.159
G0Z5.080
G0X32.154Y0.000
G1Z-6.000F300.0
G1Y0.225F1000.0
G2X32.355Y0.998I1.588J0.000
G1X32.511Y1.385
X32.587Y1.536
X32.662Y1.686
G2X33.033Y2.212I1.455J-0.634
G1X33.108Y2.287
X33.183Y2.362
X33.258Y2.437
X33.333Y2.512
G2X33.859Y2.883I1.159J-1.084
G1X33.862Y2.885
X33.864Y2.888
G2X34.235Y3.414I1.455J-0.634
G1X34.310Y3.489
X34.385Y3.564
X34.461Y3.639
G2X35.232Y4.094I1.159J-1.084
G2X35.846Y4.218I0.613J-1.464
G1X36.071
G2X36.684Y4.094I0.000J-1.588
G2X37.264Y3.814I-0.388J-1.539
